(.../pcb-gcode-3.6.0.4/pcb-gcode.ulp)
(Copyright 2005 - 2012 by John Johnson)
(See readme.txt for licensing terms.)
(This file generated from the board:)
(.../CMMC/B_Bot stm32f0/B Bot Cube.brd)
(Current profile is .../pcb-gcode-3.6.0.4/profiles/mach.pp  )
(This file generated 12/30/2014 11:18:08 PM)
(Settings from pcb-machine.h)
(  Tool Size)
(0.3000  )
(Z Axis Settings)
(  High     Up        Down     Drill)
(10.0000 	2.0000  	-0.2200 	-2.0000 )
(spindle on time = 0.0000)
(milling depth = -1.6000)
(text depth = -0.2000)
(tool change at 0.0000  0.0000  10.0000 )
(feed rate xy = F300   )
(feed rate z  = F200   )
(Settings from pcb-defaults.h)
(isolate min = 0.0100)
(isolate max = 20.0000)
(isolate step = 0.2500)
(Generated bottom outlines, bottom drill, )
(Unit of measure: mm)
(Metric Mode)
G21
(Absolute Coordinates)
G90
G00 X0.0000  Y0.0000  
M03
G04 P0.000000
G00 Z2.0000  
G00 X-13.7138 Y6.3678  
G01 Z-0.2200 F200   
G01 X-14.2262 Y6.3678  F300   
G01 X-14.6995 Y6.1718  
G01 X-15.0618 Y5.8095  
G01 X-15.2578 Y5.3362  
G01 X-15.2578 Y4.8238  
G01 X-15.0618 Y4.3505  
G01 X-14.6995 Y3.9882  
G01 X-14.2262 Y3.7922  
G01 X-13.7138 Y3.7922  
G01 X-13.2233 Y3.9954  
G01 X-9.8325 Y3.9954  
G01 X-9.7712 Y3.9700  
G01 X-8.0088 Y3.9700  
G01 X-7.6008 Y4.1390  
G01 X-7.2886 Y4.4512  
G01 X-7.1196 Y4.8592  
G01 X-7.1196 Y5.3008  
G01 X-7.2886 Y5.7088  
G01 X-7.6008 Y6.0210  
G01 X-8.0088 Y6.1900  
G01 X-9.7712 Y6.1900  
G01 X-9.8325 Y6.1646  
G01 X-13.2233 Y6.1646  
G01 X-13.7138 Y6.3678  
G00 Z2.0000  
G00 X-9.6312 Y5.9004  
G01 Z-0.2200 F200   
G01 X-8.1488 Y5.9004  F300   
G01 X-7.9903 Y5.8689  
G01 X-7.8410 Y5.8070  
G01 X-7.7066 Y5.7172  
G01 X-7.5924 Y5.6030  
G01 X-7.5026 Y5.4686  
G01 X-7.4407 Y5.3193  
G01 X-7.4092 Y5.1608  
G01 X-7.4092 Y4.9992  
G01 X-7.4407 Y4.8407  
G01 X-7.5026 Y4.6914  
G01 X-7.5924 Y4.5570  
G01 X-7.7066 Y4.4428  
G01 X-7.8410 Y4.3530  
G01 X-7.9903 Y4.2911  
G01 X-8.1488 Y4.2596  
G01 X-9.6312 Y4.2596  
G01 X-9.7589 Y4.2850  
G01 X-13.3631 Y4.2850  
G01 X-13.4972 Y4.1954  
G01 X-13.6788 Y4.1202  
G01 X-13.8717 Y4.0818  
G01 X-14.0683 Y4.0818  
G01 X-14.2612 Y4.1202  
G01 X-14.4428 Y4.1954  
G01 X-14.6063 Y4.3046  
G01 X-14.7454 Y4.4437  
G01 X-14.8546 Y4.6072  
G01 X-14.9298 Y4.7888  
G01 X-14.9682 Y4.9817  
G01 X-14.9682 Y5.1783  
G01 X-14.9298 Y5.3712  
G01 X-14.8546 Y5.5528  
G01 X-14.7454 Y5.7163  
G01 X-14.6063 Y5.8554  
G01 X-14.4428 Y5.9646  
G01 X-14.2612 Y6.0398  
G01 X-14.0683 Y6.0782  
G01 X-13.8717 Y6.0782  
G01 X-13.6788 Y6.0398  
G01 X-13.4972 Y5.9646  
G01 X-13.3631 Y5.8750  
G01 X-9.7589 Y5.8750  
G01 X-9.6312 Y5.9004  
G00 Z2.0000  
G00 X-80.6548 Y4.0200  
G01 Z-0.2200 F200   
G01 X-80.2299 Y3.8440  F300   
G01 X-79.7700 Y3.8440  
G01 X-79.3452 Y4.0200  
G01 X-79.0200 Y4.3452  
G01 X-78.8440 Y4.7700  
G01 X-78.8440 Y5.2299  
G01 X-79.0200 Y5.6548  
G01 X-79.3452 Y5.9800  
G01 X-79.7700 Y6.1560  
G01 X-80.2299 Y6.1560  
G01 X-80.6548 Y5.9800  
G01 X-80.9800 Y5.6548  
G01 X-81.1560 Y5.2299  
G01 X-81.1560 Y4.7700  
G01 X-80.9800 Y4.3452  
G01 X-80.6548 Y4.0200  
G00 Z2.0000  
G00 X-50.6548 Y49.0200 
G01 Z-0.2200 F200   
G01 X-50.2300 Y48.8440 F300   
G01 X-49.7700 Y48.8440 
G01 X-49.3452 Y49.0200 
G01 X-49.0200 Y49.3452 
G01 X-48.8440 Y49.7700 
G01 X-48.8440 Y50.2299 
G01 X-49.0200 Y50.6548 
G01 X-49.3452 Y50.9800 
G01 X-49.7700 Y51.1560 
G01 X-50.2299 Y51.1560 
G01 X-50.6548 Y50.9800 
G01 X-50.9800 Y50.6548 
G01 X-51.1560 Y50.2299 
G01 X-51.1560 Y49.7700 
G01 X-50.9800 Y49.3452 
G01 X-50.6548 Y49.0200 
G00 Z2.0000  
G00 X-91.9221 Y41.6406 
G01 Z-0.2200 F200   
G01 X-91.4554 Y41.1739 F300   
G01 X-90.8837 Y40.8438 
G01 X-90.2461 Y40.6730 
G01 X-89.5859 Y40.6730 
G01 X-88.9483 Y40.8438 
G01 X-88.3766 Y41.1739 
G01 X-87.9099 Y41.6406 
G01 X-87.5798 Y42.2123 
G01 X-87.4090 Y42.8499 
G01 X-87.4090 Y43.5100 
G01 X-87.5798 Y44.1477 
G01 X-87.9099 Y44.7193 
G01 X-88.3766 Y45.1861 
G01 X-88.9483 Y45.5162 
G01 X-89.5859 Y45.6870 
G01 X-90.2461 Y45.6870 
G01 X-90.8837 Y45.5162 
G01 X-91.4554 Y45.1861 
G01 X-91.9221 Y44.7193 
G01 X-92.2522 Y44.1477 
G01 X-92.4230 Y43.5100 
G01 X-92.4230 Y42.8499 
G01 X-92.2522 Y42.2123 
G01 X-91.9221 Y41.6406 
G00 Z2.0000  
G00 X-59.0579 Y30.4732 
G01 Z-0.2200 F200   
G01 X-59.2400 Y30.5486 F300   
G01 X-60.2600 Y30.5486 
G01 X-60.4421 Y30.4732 
G01 X-60.5814 Y30.3339 
G01 X-60.6568 Y30.1518 
G01 X-60.6568 Y28.2682 
G01 X-60.5814 Y28.0861 
G01 X-60.4421 Y27.9468 
G01 X-60.2600 Y27.8714 
G01 X-59.2400 Y27.8714 
G01 X-59.0579 Y27.9468 
G01 X-58.9186 Y28.0861 
G01 X-58.8999 Y28.1312 
G01 X-58.8944 Y28.1518 
G01 X-58.8879 Y28.1603 
G01 X-58.8838 Y28.1702 
G01 X-58.8687 Y28.1853 
G01 X-58.8557 Y28.2023 
G01 X-58.8464 Y28.2076 
G01 X-58.8387 Y28.2153 
G01 X-58.8190 Y28.2234 
G01 X-58.8127 Y28.2271 
G01 X-58.8359 Y28.2502 
G01 X-58.8672 Y28.3258 
G01 X-58.8672 Y30.0942 
G01 X-58.8359 Y30.1698 
G01 X-58.8127 Y30.1929 
G01 X-58.8190 Y30.1966 
G01 X-58.8387 Y30.2047 
G01 X-58.8464 Y30.2124 
G01 X-58.8557 Y30.2177 
G01 X-58.8687 Y30.2347 
G01 X-58.8838 Y30.2497 
G01 X-58.8879 Y30.2597 
G01 X-58.8944 Y30.2682 
G01 X-58.8999 Y30.2888 
G01 X-58.9186 Y30.3339 
G01 X-59.0579 Y30.4732 
G00 Z2.0000  
G00 X-59.2976 Y28.1610 
G01 Z-0.2200 F200   
G01 X-60.2024 Y28.1610 F300   
G01 X-60.2780 Y28.1923 
G01 X-60.3359 Y28.2502 
G01 X-60.3672 Y28.3258 
G01 X-60.3672 Y30.0942 
G01 X-60.3359 Y30.1698 
G01 X-60.2780 Y30.2277 
G01 X-60.2024 Y30.2590 
G01 X-59.2976 Y30.2590 
G01 X-59.2220 Y30.2277 
G01 X-59.1641 Y30.1698 
G01 X-59.1328 Y30.0942 
G01 X-59.1328 Y28.3258 
G01 X-59.1641 Y28.2502 
G01 X-59.2220 Y28.1923 
G01 X-59.2976 Y28.1610 
G00 Z2.0000  
G00 X-83.9088 Y3.9053  
G01 Z-0.2200 F200   
G01 X-83.8404 Y4.0706  F300   
G01 X-83.8404 Y5.5494  
G01 X-83.9088 Y5.7147  
G01 X-84.0353 Y5.8412  
G01 X-84.2006 Y5.9096  
G01 X-84.2074 Y5.9096  
G01 X-84.2662 Y5.9340  
G01 X-84.3112 Y5.9790  
G01 X-84.3356 Y6.0378  
G01 X-84.3356 Y6.7022  
G01 X-84.3112 Y6.7610  
G01 X-84.2662 Y6.8060  
G01 X-84.2074 Y6.8304  
G01 X-83.1006 Y6.8304  
G01 X-82.9353 Y6.8988  
G01 X-82.8088 Y7.0253  
G01 X-82.7404 Y7.1906  
G01 X-82.7404 Y9.3694  
G01 X-82.8088 Y9.5347  
G01 X-82.9353 Y9.6612  
G01 X-83.1006 Y9.7296  
G01 X-84.2074 Y9.7296  
G01 X-84.2662 Y9.7540  
G01 X-84.3112 Y9.7990  
G01 X-84.3356 Y9.8578  
G01 X-84.3356 Y10.5474 
G01 X-84.3112 Y10.6062 
G01 X-84.2662 Y10.6512 
G01 X-84.2074 Y10.6756 
G01 X-81.1299 Y10.6756 
G01 X-80.8526 Y10.7904 
G01 X-78.9853 Y12.6578 
G01 X-78.9265 Y12.6822 
G01 X-78.4838 Y12.6822 
G01 X-78.0105 Y12.8782 
G01 X-77.6482 Y13.2405 
G01 X-77.4522 Y13.7138 
G01 X-77.4522 Y14.2262 
G01 X-77.6482 Y14.6995 
G01 X-78.0105 Y15.0618 
G01 X-78.4838 Y15.2578 
G01 X-78.9962 Y15.2578 
G01 X-79.4695 Y15.0618 
G01 X-79.8318 Y14.6995 
G01 X-80.0278 Y14.2262 
G01 X-80.0278 Y13.7835 
G01 X-80.0522 Y13.7247 
G01 X-80.0972 Y13.6797 
G01 X-81.5681 Y12.2088 
G01 X-81.6269 Y12.1844 
G01 X-85.2401 Y12.1844 
G01 X-85.5173 Y12.0696 
G01 X-85.7296 Y11.8573 
G01 X-85.8444 Y11.5801 
G01 X-85.8444 Y9.8578  
G01 X-85.8688 Y9.7990  
G01 X-85.9138 Y9.7540  
G01 X-85.9726 Y9.7296  
G01 X-87.0794 Y9.7296  
G01 X-87.2447 Y9.6612  
G01 X-87.3712 Y9.5347  
G01 X-87.4396 Y9.3694  
G01 X-87.4396 Y7.1906  
G01 X-87.3712 Y7.0253  
G01 X-87.2447 Y6.8988  
G01 X-87.0794 Y6.8304  
G01 X-85.9726 Y6.8304  
G01 X-85.9138 Y6.8060  
G01 X-85.8688 Y6.7610  
G01 X-85.8444 Y6.7022  
G01 X-85.8444 Y6.0378  
G01 X-85.8688 Y5.9790  
G01 X-85.9138 Y5.9340  
G01 X-85.9726 Y5.9096  
G01 X-85.9794 Y5.9096  
G01 X-86.1447 Y5.8412  
G01 X-86.2712 Y5.7147  
G01 X-86.3396 Y5.5494  
G01 X-86.3396 Y4.0706  
G01 X-86.2712 Y3.9053  
G01 X-86.1447 Y3.7788  
G01 X-86.0787 Y3.7515  
G01 X-86.0198 Y3.7271  
G01 X-85.9755 Y3.6828  
G01 X-85.9609 Y3.6484  
G01 X-85.9505 Y3.6233  
G01 X-85.9505 Y3.6081  
G01 X-85.9218 Y3.6200  
G01 X-84.2582 Y3.6200  
G01 X-84.2295 Y3.6081  
G01 X-84.2295 Y3.6233  
G01 X-84.2197 Y3.6470  
G01 X-84.2052 Y3.6821  
G01 X-84.1602 Y3.7271  
G01 X-84.1013 Y3.7515  
G01 X-84.0353 Y3.7788  
G01 X-83.9088 Y3.9053  
G00 Z2.0000  
G00 X-84.2582 Y4.0000  
G01 Z-0.2200 F200   
G01 X-85.9218 Y4.0000  F300   
G01 X-85.9806 Y4.0244  
G01 X-86.0256 Y4.0694  
G01 X-86.0500 Y4.1282  
G01 X-86.0500 Y5.4918  
G01 X-86.0256 Y5.5506  
G01 X-85.9806 Y5.5956  
G01 X-85.9218 Y5.6200  
G01 X-85.5548 Y5.6200  
G01 X-85.5548 Y7.1200  
G01 X-87.0218 Y7.1200  
G01 X-87.0806 Y7.1444  
G01 X-87.1256 Y7.1894  
G01 X-87.1500 Y7.2482  
G01 X-87.1500 Y9.3118  
G01 X-87.1256 Y9.3706  
G01 X-87.0806 Y9.4156  
G01 X-87.0218 Y9.4400  
G01 X-85.5548 Y9.4400  
G01 X-85.5548 Y11.4912 
G01 X-85.5231 Y11.6094 
G01 X-85.4619 Y11.7154 
G01 X-85.3754 Y11.8019 
G01 X-85.2694 Y11.8631 
G01 X-85.1512 Y11.8948 
G01 X-81.4725 Y11.8948 
G01 X-79.6965 Y13.6708 
G01 X-79.6998 Y13.6788 
G01 X-79.7382 Y13.8717 
G01 X-79.7382 Y14.0683 
G01 X-79.6998 Y14.2612 
G01 X-79.6246 Y14.4428 
G01 X-79.5153 Y14.6063 
G01 X-79.3763 Y14.7454 
G01 X-79.2128 Y14.8546 
G01 X-79.0312 Y14.9298 
G01 X-78.8383 Y14.9682 
G01 X-78.6417 Y14.9682 
G01 X-78.4488 Y14.9298 
G01 X-78.2672 Y14.8546 
G01 X-78.1037 Y14.7454 
G01 X-77.9646 Y14.6063 
G01 X-77.8554 Y14.4428 
G01 X-77.7802 Y14.2612 
G01 X-77.7418 Y14.0683 
G01 X-77.7418 Y13.8717 
G01 X-77.7802 Y13.6788 
G01 X-77.8554 Y13.4972 
G01 X-77.9646 Y13.3337 
G01 X-78.1037 Y13.1946 
G01 X-78.2672 Y13.0854 
G01 X-78.4488 Y13.0102 
G01 X-78.6417 Y12.9718 
G01 X-78.8383 Y12.9718 
G01 X-79.0312 Y13.0102 
G01 X-79.0392 Y13.0135 
G01 X-80.9946 Y11.0581 
G01 X-81.1006 Y10.9969 
G01 X-81.2188 Y10.9652 
G01 X-84.6252 Y10.9652 
G01 X-84.6252 Y9.4400  
G01 X-83.1582 Y9.4400  
G01 X-83.0994 Y9.4156  
G01 X-83.0544 Y9.3706  
G01 X-83.0300 Y9.3118  
G01 X-83.0300 Y7.2482  
G01 X-83.0544 Y7.1894  
G01 X-83.0994 Y7.1444  
G01 X-83.1582 Y7.1200  
G01 X-84.6252 Y7.1200  
G01 X-84.6252 Y5.6200  
G01 X-84.2582 Y5.6200  
G01 X-84.1994 Y5.5956  
G01 X-84.1544 Y5.5506  
G01 X-84.1300 Y5.4918  
G01 X-84.1300 Y4.1282  
G01 X-84.1544 Y4.0694  
G01 X-84.1994 Y4.0244  
G01 X-84.2582 Y4.0000  
G00 Z2.0000  
G00 X-13.7138 Y27.9578 
G01 Z-0.2200 F200   
G01 X-14.2262 Y27.9578 F300   
G01 X-14.6995 Y27.7618 
G01 X-15.0618 Y27.3995 
G01 X-15.2578 Y26.9262 
G01 X-15.2578 Y26.4138 
G01 X-15.0618 Y25.9405 
G01 X-14.6995 Y25.5782 
G01 X-14.2262 Y25.3822 
G01 X-13.7138 Y25.3822 
G01 X-13.2233 Y25.5854 
G01 X-9.8325 Y25.5854 
G01 X-9.7712 Y25.5600 
G01 X-8.0088 Y25.5600 
G01 X-7.6008 Y25.7290 
G01 X-7.2886 Y26.0412 
G01 X-7.1196 Y26.4492 
G01 X-7.1196 Y26.8908 
G01 X-7.2886 Y27.2988 
G01 X-7.6008 Y27.6110 
G01 X-8.0088 Y27.7800 
G01 X-9.7712 Y27.7800 
G01 X-9.8325 Y27.7546 
G01 X-13.2233 Y27.7546 
G01 X-13.7138 Y27.9578 
G00 Z2.0000  
G00 X-9.6312 Y27.4904 
G01 Z-0.2200 F200   
G01 X-8.1488 Y27.4904 F300   
G01 X-7.9903 Y27.4589 
G01 X-7.8410 Y27.3970 
G01 X-7.7066 Y27.3072 
G01 X-7.5924 Y27.1930 
G01 X-7.5026 Y27.0586 
G01 X-7.4407 Y26.9093 
G01 X-7.4092 Y26.7508 
G01 X-7.4092 Y26.5892 
G01 X-7.4407 Y26.4307 
G01 X-7.5026 Y26.2814 
G01 X-7.5924 Y26.1470 
G01 X-7.7066 Y26.0328 
G01 X-7.8410 Y25.9430 
G01 X-7.9903 Y25.8811 
G01 X-8.1488 Y25.8496 
G01 X-9.6312 Y25.8496 
G01 X-9.7589 Y25.8750 
G01 X-13.3631 Y25.8750 
G01 X-13.4972 Y25.7854 
G01 X-13.6788 Y25.7102 
G01 X-13.8717 Y25.6718 
G01 X-14.0683 Y25.6718 
G01 X-14.2612 Y25.7102 
G01 X-14.4428 Y25.7854 
G01 X-14.6063 Y25.8946 
G01 X-14.7454 Y26.0337 
G01 X-14.8546 Y26.1972 
G01 X-14.9298 Y26.3788 
G01 X-14.9682 Y26.5717 
G01 X-14.9682 Y26.7683 
G01 X-14.9298 Y26.9612 
G01 X-14.8546 Y27.1428 
G01 X-14.7454 Y27.3063 
G01 X-14.6063 Y27.4454 
G01 X-14.4428 Y27.5546 
G01 X-14.2612 Y27.6298 
G01 X-14.0683 Y27.6682 
G01 X-13.8717 Y27.6682 
G01 X-13.6788 Y27.6298 
G01 X-13.4972 Y27.5546 
G01 X-13.3631 Y27.4650 
G01 X-9.7589 Y27.4650 
G01 X-9.6312 Y27.4904 
G00 Z2.0000  
G00 X-5.6548 Y49.0200 
G01 Z-0.2200 F200   
G01 X-5.2299 Y48.8440 F300   
G01 X-4.7700 Y48.8440 
G01 X-4.3452 Y49.0200 
G01 X-4.0200 Y49.3452 
G01 X-3.8440 Y49.7700 
G01 X-3.8440 Y50.2299 
G01 X-4.0200 Y50.6548 
G01 X-4.3452 Y50.9800 
G01 X-4.7700 Y51.1560 
G01 X-5.2299 Y51.1560 
G01 X-5.6548 Y50.9800 
G01 X-5.9800 Y50.6548 
G01 X-6.1560 Y50.2299 
G01 X-6.1560 Y49.7700 
G01 X-5.9800 Y49.3452 
G01 X-5.6548 Y49.0200 
G00 Z2.0000  
G00 X-5.6548 Y4.0200  
G01 Z-0.2200 F200   
G01 X-5.2299 Y3.8440  F300   
G01 X-4.7700 Y3.8440  
G01 X-4.3452 Y4.0200  
G01 X-4.0200 Y4.3452  
G01 X-3.8440 Y4.7700  
G01 X-3.8440 Y5.2299  
G01 X-4.0200 Y5.6548  
G01 X-4.3452 Y5.9800  
G01 X-4.7700 Y6.1560  
G01 X-5.2299 Y6.1560  
G01 X-5.6548 Y5.9800  
G01 X-5.9800 Y5.6548  
G01 X-6.1560 Y5.2300  
G01 X-6.1560 Y4.7700  
G01 X-5.9800 Y4.3452  
G01 X-5.6548 Y4.0200  
G00 Z2.0000  
G00 X-73.3882 Y21.4917 
G01 Z-0.2200 F200   
G01 X-73.3882 Y21.6883 F300   
G01 X-73.3498 Y21.8812 
G01 X-73.3465 Y21.8892 
G01 X-76.1328 Y24.6755 
G01 X-76.2713 Y24.5829 
G01 X-76.4391 Y24.5134 
G01 X-76.6172 Y24.4780 
G01 X-78.3228 Y24.4780 
G01 X-78.5009 Y24.5134 
G01 X-78.6687 Y24.5829 
G01 X-78.8197 Y24.6838 
G01 X-78.9482 Y24.8123 
G01 X-79.0491 Y24.9633 
G01 X-79.1186 Y25.1311 
G01 X-79.1540 Y25.3092 
G01 X-79.1540 Y25.4908 
G01 X-79.1186 Y25.6689 
G01 X-79.0491 Y25.8367 
G01 X-78.9482 Y25.9877 
G01 X-78.8197 Y26.1162 
G01 X-78.6687 Y26.2171 
G01 X-78.5009 Y26.2866 
G01 X-78.3228 Y26.3220 
G01 X-76.6172 Y26.3220 
G01 X-76.4391 Y26.2866 
G01 X-76.2713 Y26.2171 
G01 X-76.1203 Y26.1162 
G01 X-75.9918 Y25.9877 
G01 X-75.8909 Y25.8367 
G01 X-75.8284 Y25.6857 
G01 X-72.6892 Y22.5465 
G01 X-72.6812 Y22.5498 
G01 X-72.4883 Y22.5882 
G01 X-72.2917 Y22.5882 
G01 X-72.0988 Y22.5498 
G01 X-71.9172 Y22.4746 
G01 X-71.7537 Y22.3653 
G01 X-71.6146 Y22.2263 
G01 X-71.5054 Y22.0628 
G01 X-71.4302 Y21.8812 
G01 X-71.3918 Y21.6883 
G01 X-71.3918 Y21.4917 
G01 X-71.4302 Y21.2988 
G01 X-71.5054 Y21.1172 
G01 X-71.6146 Y20.9537 
G01 X-71.7537 Y20.8146 
G01 X-71.9172 Y20.7054 
G01 X-72.0988 Y20.6302 
G01 X-72.2917 Y20.5918 
G01 X-72.4883 Y20.5918 
G01 X-72.6812 Y20.6302 
G01 X-72.8628 Y20.7054 
G01 X-73.0263 Y20.8146 
G01 X-73.1654 Y20.9537 
G01 X-73.2746 Y21.1172 
G01 X-73.3498 Y21.2988 
G01 X-73.3882 Y21.4917 
G00 Z2.0000  
G00 X-74.0232 Y29.1117 
G01 Z-0.2200 F200   
G01 X-74.0232 Y29.3083 F300   
G01 X-73.9848 Y29.5012 
G01 X-73.9096 Y29.6828 
G01 X-73.8004 Y29.8463 
G01 X-73.6613 Y29.9854 
G01 X-73.4978 Y30.0946 
G01 X-73.4898 Y30.0979 
G01 X-73.4898 Y32.1925 
G01 X-73.8525 Y32.5552 
G01 X-80.4525 Y32.5552 
G01 X-80.8152 Y32.1925 
G01 X-80.8152 Y29.1488 
G01 X-80.8469 Y29.0306 
G01 X-80.9081 Y28.9246 
G01 X-82.1781 Y27.6546 
G01 X-82.2646 Y27.5681 
G01 X-82.3706 Y27.5069 
G01 X-82.4888 Y27.4752 
G01 X-83.5297 Y27.4752 
G01 X-83.6118 Y27.3523 
G01 X-83.7403 Y27.2238 
G01 X-83.8913 Y27.1229 
G01 X-84.0591 Y27.0534 
G01 X-84.2372 Y27.0180 
G01 X-85.9428 Y27.0180 
G01 X-86.1209 Y27.0534 
G01 X-86.2887 Y27.1229 
G01 X-86.4397 Y27.2238 
G01 X-86.5682 Y27.3523 
G01 X-86.6691 Y27.5033 
G01 X-86.7386 Y27.6711 
G01 X-86.7740 Y27.8492 
G01 X-86.7740 Y28.0308 
G01 X-86.7386 Y28.2089 
G01 X-86.6691 Y28.3767 
G01 X-86.5682 Y28.5277 
G01 X-86.4397 Y28.6562 
G01 X-86.2887 Y28.7571 
G01 X-86.1209 Y28.8266 
G01 X-85.9428 Y28.8620 
G01 X-84.2372 Y28.8620 
G01 X-84.0591 Y28.8266 
G01 X-83.8913 Y28.7571 
G01 X-83.7403 Y28.6562 
G01 X-83.6118 Y28.5277 
G01 X-83.5297 Y28.4048 
G01 X-82.7425 Y28.4048 
G01 X-81.7448 Y29.4025 
G01 X-81.7448 Y32.4462 
G01 X-81.7131 Y32.5644 
G01 X-81.6519 Y32.6704 
G01 X-81.5654 Y32.7569 
G01 X-80.9304 Y33.3919 
G01 X-80.8244 Y33.4531 
G01 X-80.7062 Y33.4848 
G01 X-73.5988 Y33.4848 
G01 X-73.4806 Y33.4531 
G01 X-73.3746 Y33.3919 
G01 X-73.2881 Y33.3054 
G01 X-72.6531 Y32.6704 
G01 X-72.5919 Y32.5644 
G01 X-72.5602 Y32.4462 
G01 X-72.5602 Y30.0979 
G01 X-72.5522 Y30.0946 
G01 X-72.3887 Y29.9854 
G01 X-72.2496 Y29.8463 
G01 X-72.1404 Y29.6828 
G01 X-72.0652 Y29.5012 
G01 X-72.0268 Y29.3083 
G01 X-72.0268 Y29.1117 
G01 X-72.0652 Y28.9188 
G01 X-72.1404 Y28.7372 
G01 X-72.2496 Y28.5737 
G01 X-72.3887 Y28.4346 
G01 X-72.5522 Y28.3254 
G01 X-72.7338 Y28.2502 
G01 X-72.9267 Y28.2118 
G01 X-73.1233 Y28.2118 
G01 X-73.3162 Y28.2502 
G01 X-73.4978 Y28.3254 
G01 X-73.6613 Y28.4346 
G01 X-73.8004 Y28.5737 
G01 X-73.9096 Y28.7372 
G01 X-73.9848 Y28.9188 
G01 X-74.0232 Y29.1117 
G00 Z2.0000  
G00 X-30.4135 Y36.3652 
G01 Z-0.2200 F200   
G01 X-30.4524 Y36.3070 F300   
G01 X-30.5666 Y36.1928 
G01 X-30.7010 Y36.1030 
G01 X-30.8503 Y36.0411 
G01 X-31.0088 Y36.0096 
G01 X-32.4912 Y36.0096 
G01 X-32.6497 Y36.0411 
G01 X-32.7990 Y36.1030 
G01 X-32.9334 Y36.1928 
G01 X-33.0476 Y36.3070 
G01 X-33.1374 Y36.4414 
G01 X-33.1993 Y36.5907 
G01 X-33.2308 Y36.7492 
G01 X-33.2308 Y36.9108 
G01 X-33.1993 Y37.0693 
G01 X-33.1374 Y37.2186 
G01 X-33.0476 Y37.3530 
G01 X-32.9334 Y37.4672 
G01 X-32.7990 Y37.5570 
G01 X-32.6497 Y37.6189 
G01 X-32.4912 Y37.6504 
G01 X-31.0088 Y37.6504 
G01 X-30.8503 Y37.6189 
G01 X-30.7010 Y37.5570 
G01 X-30.5666 Y37.4672 
G01 X-30.4524 Y37.3530 
G01 X-30.4135 Y37.2948 
G01 X-26.9229 Y37.2948 
G01 X-26.9196 Y37.3028 
G01 X-26.8103 Y37.4663 
G01 X-26.6713 Y37.6054 
G01 X-26.5078 Y37.7146 
G01 X-26.3262 Y37.7898 
G01 X-26.1333 Y37.8282 
G01 X-25.9367 Y37.8282 
G01 X-25.7438 Y37.7898 
G01 X-25.5622 Y37.7146 
G01 X-25.3987 Y37.6054 
G01 X-25.2596 Y37.4663 
G01 X-25.1504 Y37.3028 
G01 X-25.0752 Y37.1212 
G01 X-25.0368 Y36.9283 
G01 X-25.0368 Y36.7317 
G01 X-25.0752 Y36.5388 
G01 X-25.1504 Y36.3572 
G01 X-25.2596 Y36.1937 
G01 X-25.3987 Y36.0546 
G01 X-25.5622 Y35.9454 
G01 X-25.7438 Y35.8702 
G01 X-25.9367 Y35.8318 
G01 X-26.1333 Y35.8318 
G01 X-26.3262 Y35.8702 
G01 X-26.5078 Y35.9454 
G01 X-26.6713 Y36.0546 
G01 X-26.8103 Y36.1937 
G01 X-26.9196 Y36.3572 
G01 X-26.9229 Y36.3652 
G01 X-30.4135 Y36.3652 
G00 Z2.0000  
G00 X-20.8488 Y4.2596  
G01 Z-0.2200 F200   
G01 X-22.3312 Y4.2596  F300   
G01 X-22.4897 Y4.2911  
G01 X-22.6390 Y4.3530  
G01 X-22.7734 Y4.4428  
G01 X-22.8876 Y4.5570  
G01 X-22.9277 Y4.6169  
G01 X-23.0394 Y4.6469  
G01 X-23.1454 Y4.7081  
G01 X-23.2319 Y4.7946  
G01 X-24.4154 Y5.9781  
G01 X-24.5019 Y6.0646  
G01 X-24.5631 Y6.1706  
G01 X-24.5948 Y6.2888  
G01 X-24.5948 Y16.2571 
G01 X-24.6028 Y16.2604 
G01 X-24.7663 Y16.3696 
G01 X-24.9054 Y16.5087 
G01 X-25.0146 Y16.6722 
G01 X-25.0898 Y16.8538 
G01 X-25.1282 Y17.0467 
G01 X-25.1282 Y17.2433 
G01 X-25.0898 Y17.4362 
G01 X-25.0146 Y17.6178 
G01 X-24.9054 Y17.7813 
G01 X-24.8470 Y17.8397 
G01 X-24.9575 Y17.9502 
G01 X-26.7312 Y17.9502 
G01 X-26.8494 Y17.9819 
G01 X-26.9554 Y18.0431 
G01 X-28.2254 Y19.3131 
G01 X-28.3119 Y19.3996 
G01 X-28.3731 Y19.5056 
G01 X-28.4048 Y19.6238 
G01 X-28.4048 Y21.5745 
G01 X-28.4078 Y21.6201 
G01 X-28.4048 Y21.6355 
G01 X-28.4048 Y21.6512 
G01 X-28.3930 Y21.6953 
G01 X-28.3841 Y21.7402 
G01 X-28.3772 Y21.7543 
G01 X-28.3731 Y21.7694 
G01 X-28.3503 Y21.8090 
G01 X-28.3301 Y21.8500 
G01 X-28.3198 Y21.8618 
G01 X-28.3119 Y21.8754 
G01 X-28.2796 Y21.9077 
G01 X-23.8748 Y26.9418 
G01 X-23.8669 Y26.9554 
G01 X-23.8346 Y26.9877 
G01 X-23.8045 Y27.0221 
G01 X-23.7915 Y27.0308 
G01 X-23.7804 Y27.0419 
G01 X-23.7408 Y27.0648 
G01 X-23.7028 Y27.0902 
G01 X-23.6880 Y27.0953 
G01 X-23.6744 Y27.1031 
G01 X-23.6302 Y27.1150 
G01 X-23.5870 Y27.1297 
G01 X-23.5713 Y27.1307 
G01 X-23.5562 Y27.1348 
G01 X-23.5105 Y27.1348 
G01 X-23.4649 Y27.1378 
G01 X-23.4495 Y27.1348 
G01 X-22.9265 Y27.1348 
G01 X-22.8876 Y27.1930 
G01 X-22.7734 Y27.3072 
G01 X-22.6390 Y27.3970 
G01 X-22.4897 Y27.4589 
G01 X-22.3312 Y27.4904 
G01 X-20.8488 Y27.4904 
G01 X-20.6903 Y27.4589 
G01 X-20.5410 Y27.3970 
G01 X-20.4066 Y27.3072 
G01 X-20.2924 Y27.1930 
G01 X-20.2026 Y27.0586 
G01 X-20.1407 Y26.9093 
G01 X-20.1092 Y26.7508 
G01 X-20.1092 Y26.5892 
G01 X-20.1407 Y26.4307 
G01 X-20.2026 Y26.2814 
G01 X-20.2924 Y26.1470 
G01 X-20.4066 Y26.0328 
G01 X-20.5410 Y25.9430 
G01 X-20.6903 Y25.8811 
G01 X-20.8488 Y25.8496 
G01 X-22.3312 Y25.8496 
G01 X-22.4897 Y25.8811 
G01 X-22.6390 Y25.9430 
G01 X-22.7734 Y26.0328 
G01 X-22.8876 Y26.1470 
G01 X-22.9265 Y26.2052 
G01 X-23.2841 Y26.2052 
G01 X-27.4752 Y21.4154 
G01 X-27.4752 Y19.8775 
G01 X-26.4775 Y18.8798 
G01 X-24.7038 Y18.8798 
G01 X-24.5856 Y18.8481 
G01 X-24.4796 Y18.7869 
G01 X-24.3931 Y18.7004 
G01 X-23.7683 Y18.0756 
G01 X-23.6572 Y18.0296 
G01 X-23.4937 Y17.9203 
G01 X-23.3546 Y17.7813 
G01 X-23.2454 Y17.6178 
G01 X-23.1702 Y17.4362 
G01 X-23.1318 Y17.2433 
G01 X-23.1318 Y17.0467 
G01 X-23.1702 Y16.8538 
G01 X-23.2454 Y16.6722 
G01 X-23.3546 Y16.5087 
G01 X-23.4937 Y16.3696 
G01 X-23.6572 Y16.2604 
G01 X-23.6652 Y16.2571 
G01 X-23.6652 Y6.5425  
G01 X-22.8066 Y5.6840  
G01 X-22.7734 Y5.7172  
G01 X-22.6390 Y5.8070  
G01 X-22.4897 Y5.8689  
G01 X-22.3312 Y5.9004  
G01 X-20.8488 Y5.9004  
G01 X-20.6903 Y5.8689  
G01 X-20.5410 Y5.8070  
G01 X-20.4066 Y5.7172  
G01 X-20.2924 Y5.6030  
G01 X-20.2026 Y5.4686  
G01 X-20.1407 Y5.3193  
G01 X-20.1092 Y5.1608  
G01 X-20.1092 Y4.9992  
G01 X-20.1407 Y4.8407  
G01 X-20.2026 Y4.6914  
G01 X-20.2924 Y4.5570  
G01 X-20.4066 Y4.4428  
G01 X-20.5410 Y4.3530  
G01 X-20.6903 Y4.2911  
G01 X-20.8488 Y4.2596  
G00 Z2.0000  
G00 X-20.8488 Y16.9596 
G01 Z-0.2200 F200   
G01 X-21.1252 Y16.9596 F300   
G01 X-21.1252 Y16.0604 
G01 X-20.8488 Y16.0604 
G01 X-20.6903 Y16.0289 
G01 X-20.5410 Y15.9670 
G01 X-20.4066 Y15.8772 
G01 X-20.2924 Y15.7630 
G01 X-20.2026 Y15.6286 
G01 X-20.1407 Y15.4793 
G01 X-20.1092 Y15.3208 
G01 X-20.1092 Y15.1592 
G01 X-20.1407 Y15.0007 
G01 X-20.2026 Y14.8514 
G01 X-20.2924 Y14.7170 
G01 X-20.4066 Y14.6028 
G01 X-20.5410 Y14.5130 
G01 X-20.6903 Y14.4511 
G01 X-20.8488 Y14.4196 
G01 X-22.3312 Y14.4196 
G01 X-22.4897 Y14.4511 
G01 X-22.6390 Y14.5130 
G01 X-22.7734 Y14.6028 
G01 X-22.8876 Y14.7170 
G01 X-22.9774 Y14.8514 
G01 X-23.0393 Y15.0007 
G01 X-23.0708 Y15.1592 
G01 X-23.0708 Y15.3208 
G01 X-23.0393 Y15.4793 
G01 X-22.9774 Y15.6286 
G01 X-22.8876 Y15.7630 
G01 X-22.7734 Y15.8772 
G01 X-22.6390 Y15.9670 
G01 X-22.4897 Y16.0289 
G01 X-22.3312 Y16.0604 
G01 X-22.0548 Y16.0604 
G01 X-22.0548 Y16.9596 
G01 X-22.3312 Y16.9596 
G01 X-22.4897 Y16.9911 
G01 X-22.6390 Y17.0530 
G01 X-22.7734 Y17.1428 
G01 X-22.8876 Y17.2570 
G01 X-22.9774 Y17.3914 
G01 X-23.0393 Y17.5407 
G01 X-23.0708 Y17.6992 
G01 X-23.0708 Y17.8608 
G01 X-23.0393 Y18.0193 
G01 X-22.9774 Y18.1686 
G01 X-22.8876 Y18.3030 
G01 X-22.7734 Y18.4172 
G01 X-22.6390 Y18.5070 
G01 X-22.4897 Y18.5689 
G01 X-22.3312 Y18.6004 
G01 X-20.8488 Y18.6004 
G01 X-20.6903 Y18.5689 
G01 X-20.5410 Y18.5070 
G01 X-20.4066 Y18.4172 
G01 X-20.2924 Y18.3030 
G01 X-20.2026 Y18.1686 
G01 X-20.1407 Y18.0193 
G01 X-20.1092 Y17.8608 
G01 X-20.1092 Y17.6992 
G01 X-20.1407 Y17.5407 
G01 X-20.2026 Y17.3914 
G01 X-20.2924 Y17.2570 
G01 X-20.4066 Y17.1428 
G01 X-20.5410 Y17.0530 
G01 X-20.6903 Y16.9911 
G01 X-20.8488 Y16.9596 
G00 Z2.0000  
G00 X-20.8488 Y19.4996 
G01 Z-0.2200 F200   
G01 X-22.3312 Y19.4996 F300   
G01 X-22.4897 Y19.5311 
G01 X-22.6390 Y19.5930 
G01 X-22.7734 Y19.6828 
G01 X-22.8876 Y19.7970 
G01 X-22.9265 Y19.8552 
G01 X-25.1471 Y19.8552 
G01 X-25.1504 Y19.8472 
G01 X-25.2596 Y19.6837 
G01 X-25.3987 Y19.5446 
G01 X-25.5622 Y19.4354 
G01 X-25.7438 Y19.3602 
G01 X-25.9367 Y19.3218 
G01 X-26.1333 Y19.3218 
G01 X-26.3262 Y19.3602 
G01 X-26.5078 Y19.4354 
G01 X-26.6713 Y19.5446 
G01 X-26.8103 Y19.6837 
G01 X-26.9196 Y19.8472 
G01 X-26.9948 Y20.0288 
G01 X-27.0332 Y20.2217 
G01 X-27.0332 Y20.4183 
G01 X-26.9948 Y20.6112 
G01 X-26.9196 Y20.7928 
G01 X-26.8103 Y20.9563 
G01 X-26.6713 Y21.0953 
G01 X-26.5078 Y21.2046 
G01 X-26.3262 Y21.2798 
G01 X-26.1333 Y21.3182 
G01 X-25.9367 Y21.3182 
G01 X-25.7438 Y21.2798 
G01 X-25.5622 Y21.2046 
G01 X-25.3987 Y21.0953 
G01 X-25.2596 Y20.9563 
G01 X-25.1504 Y20.7928 
G01 X-25.1471 Y20.7848 
G01 X-22.9265 Y20.7848 
G01 X-22.8876 Y20.8430 
G01 X-22.7734 Y20.9572 
G01 X-22.6390 Y21.0470 
G01 X-22.4897 Y21.1089 
G01 X-22.3312 Y21.1404 
G01 X-20.8488 Y21.1404 
G01 X-20.6903 Y21.1089 
G01 X-20.5410 Y21.0470 
G01 X-20.4066 Y20.9572 
G01 X-20.2924 Y20.8430 
G01 X-20.2026 Y20.7086 
G01 X-20.1407 Y20.5593 
G01 X-20.1092 Y20.4008 
G01 X-20.1092 Y20.2392 
G01 X-20.1407 Y20.0807 
G01 X-20.2026 Y19.9314 
G01 X-20.2924 Y19.7970 
G01 X-20.4066 Y19.6828 
G01 X-20.5410 Y19.5930 
G01 X-20.6903 Y19.5311 
G01 X-20.8488 Y19.4996 
G00 Z2.0000  
G00 X-20.8488 Y22.0396 
G01 Z-0.2200 F200   
G01 X-22.3312 Y22.0396 F300   
G01 X-22.4897 Y22.0711 
G01 X-22.6390 Y22.1330 
G01 X-22.7734 Y22.2228 
G01 X-22.8876 Y22.3370 
G01 X-22.9265 Y22.3952 
G01 X-23.2421 Y22.3952 
G01 X-23.2454 Y22.3872 
G01 X-23.3546 Y22.2237 
G01 X-23.4937 Y22.0846 
G01 X-23.6572 Y21.9754 
G01 X-23.8388 Y21.9002 
G01 X-24.0317 Y21.8618 
G01 X-24.2283 Y21.8618 
G01 X-24.4212 Y21.9002 
G01 X-24.6028 Y21.9754 
G01 X-24.7663 Y22.0846 
G01 X-24.9054 Y22.2237 
G01 X-25.0146 Y22.3872 
G01 X-25.0898 Y22.5688 
G01 X-25.1282 Y22.7617 
G01 X-25.1282 Y22.9583 
G01 X-25.0898 Y23.1512 
G01 X-25.0146 Y23.3328 
G01 X-24.9054 Y23.4963 
G01 X-24.7663 Y23.6354 
G01 X-24.6028 Y23.7446 
G01 X-24.4212 Y23.8198 
G01 X-24.2283 Y23.8582 
G01 X-24.0317 Y23.8582 
G01 X-23.8388 Y23.8198 
G01 X-23.6572 Y23.7446 
G01 X-23.4937 Y23.6354 
G01 X-23.3546 Y23.4963 
G01 X-23.2454 Y23.3328 
G01 X-23.2421 Y23.3248 
G01 X-22.9265 Y23.3248 
G01 X-22.8876 Y23.3830 
G01 X-22.7734 Y23.4972 
G01 X-22.6390 Y23.5870 
G01 X-22.4897 Y23.6489 
G01 X-22.3312 Y23.6804 
G01 X-20.8488 Y23.6804 
G01 X-20.6903 Y23.6489 
G01 X-20.5410 Y23.5870 
G01 X-20.4066 Y23.4972 
G01 X-20.2924 Y23.3830 
G01 X-20.2026 Y23.2486 
G01 X-20.1407 Y23.0993 
G01 X-20.1092 Y22.9408 
G01 X-20.1092 Y22.7792 
G01 X-20.1407 Y22.6207 
G01 X-20.2026 Y22.4714 
G01 X-20.2924 Y22.3370 
G01 X-20.4066 Y22.2228 
G01 X-20.5410 Y22.1330 
G01 X-20.6903 Y22.0711 
G01 X-20.8488 Y22.0396 
G00 Z2.0000  
G00 X-9.6312 Y18.6004 
G01 Z-0.2200 F200   
G01 X-8.1488 Y18.6004 F300   
G01 X-8.0211 Y18.5750 
G01 X-6.3117 Y18.5750 
G01 X-6.2787 Y18.5971 
G01 X-6.1109 Y18.6666 
G01 X-5.9328 Y18.7020 
G01 X-4.2272 Y18.7020 
G01 X-4.0491 Y18.6666 
G01 X-3.8813 Y18.5971 
G01 X-3.7303 Y18.4962 
G01 X-3.6018 Y18.3677 
G01 X-3.5009 Y18.2167 
G01 X-3.4314 Y18.0489 
G01 X-3.3960 Y17.8708 
G01 X-3.3960 Y17.6892 
G01 X-3.4314 Y17.5111 
G01 X-3.5009 Y17.3433 
G01 X-3.6018 Y17.1923 
G01 X-3.7303 Y17.0638 
G01 X-3.8813 Y16.9629 
G01 X-4.0491 Y16.8934 
G01 X-4.2272 Y16.8580 
G01 X-5.9328 Y16.8580 
G01 X-6.1109 Y16.8934 
G01 X-6.2787 Y16.9629 
G01 X-6.3117 Y16.9850 
G01 X-8.0211 Y16.9850 
G01 X-8.1488 Y16.9596 
G01 X-9.6312 Y16.9596 
G01 X-9.7897 Y16.9911 
G01 X-9.9390 Y17.0530 
G01 X-10.0734 Y17.1428 
G01 X-10.1876 Y17.2570 
G01 X-10.2774 Y17.3914 
G01 X-10.3393 Y17.5407 
G01 X-10.3708 Y17.6992 
G01 X-10.3708 Y17.8608 
G01 X-10.3393 Y18.0193 
G01 X-10.2774 Y18.1686 
G01 X-10.1876 Y18.3030 
G01 X-10.0734 Y18.4172 
G01 X-9.9390 Y18.5070 
G01 X-9.7897 Y18.5689 
G01 X-9.6312 Y18.6004 
G00 Z2.0000  
G00 X-9.6312 Y13.5204 
G01 Z-0.2200 F200   
G01 X-8.1488 Y13.5204 F300   
G01 X-8.0211 Y13.4950 
G01 X-6.3117 Y13.4950 
G01 X-6.2787 Y13.5171 
G01 X-6.1109 Y13.5866 
G01 X-5.9328 Y13.6220 
G01 X-4.2272 Y13.6220 
G01 X-4.0491 Y13.5866 
G01 X-3.8813 Y13.5171 
G01 X-3.7303 Y13.4162 
G01 X-3.6018 Y13.2877 
G01 X-3.5009 Y13.1367 
G01 X-3.4314 Y12.9689 
G01 X-3.3960 Y12.7908 
G01 X-3.3960 Y12.6092 
G01 X-3.4314 Y12.4311 
G01 X-3.5009 Y12.2633 
G01 X-3.6018 Y12.1123 
G01 X-3.7303 Y11.9838 
G01 X-3.8813 Y11.8829 
G01 X-4.0491 Y11.8134 
G01 X-4.2272 Y11.7780 
G01 X-5.9328 Y11.7780 
G01 X-6.1109 Y11.8134 
G01 X-6.2787 Y11.8829 
G01 X-6.3117 Y11.9050 
G01 X-8.0211 Y11.9050 
G01 X-8.1488 Y11.8796 
G01 X-9.6312 Y11.8796 
G01 X-9.7897 Y11.9111 
G01 X-9.9390 Y11.9730 
G01 X-10.0734 Y12.0628 
G01 X-10.1876 Y12.1770 
G01 X-10.2774 Y12.3114 
G01 X-10.3393 Y12.4607 
G01 X-10.3708 Y12.6192 
G01 X-10.3708 Y12.7808 
G01 X-10.3393 Y12.9393 
G01 X-10.2774 Y13.0886 
G01 X-10.1876 Y13.2230 
G01 X-10.0734 Y13.3372 
G01 X-9.9390 Y13.4270 
G01 X-9.7897 Y13.4889 
G01 X-9.6312 Y13.5204 
G00 Z2.0000  
G00 X-20.8488 Y36.0096 
G01 Z-0.2200 F200   
G01 X-22.3312 Y36.0096 F300   
G01 X-22.4897 Y36.0411 
G01 X-22.6390 Y36.1030 
G01 X-22.7734 Y36.1928 
G01 X-22.8876 Y36.3070 
G01 X-22.9774 Y36.4414 
G01 X-23.0393 Y36.5907 
G01 X-23.0708 Y36.7492 
G01 X-23.0708 Y36.9108 
G01 X-23.0393 Y37.0693 
G01 X-22.9774 Y37.2186 
G01 X-22.8876 Y37.3530 
G01 X-22.7734 Y37.4672 
G01 X-22.6390 Y37.5570 
G01 X-22.4897 Y37.6189 
G01 X-22.3312 Y37.6504 
G01 X-22.0548 Y37.6504 
G01 X-22.0548 Y38.5496 
G01 X-22.3312 Y38.5496 
G01 X-22.4897 Y38.5811 
G01 X-22.6390 Y38.6430 
G01 X-22.7734 Y38.7328 
G01 X-22.8876 Y38.8470 
G01 X-22.9774 Y38.9814 
G01 X-23.0393 Y39.1307 
G01 X-23.0708 Y39.2892 
G01 X-23.0708 Y39.4508 
G01 X-23.0393 Y39.6093 
G01 X-22.9774 Y39.7586 
G01 X-22.8876 Y39.8930 
G01 X-22.7734 Y40.0072 
G01 X-22.6390 Y40.0970 
G01 X-22.4897 Y40.1589 
G01 X-22.3312 Y40.1904 
G01 X-20.8488 Y40.1904 
G01 X-20.6903 Y40.1589 
G01 X-20.5410 Y40.0970 
G01 X-20.4066 Y40.0072 
G01 X-20.2924 Y39.8930 
G01 X-20.2026 Y39.7586 
G01 X-20.1407 Y39.6093 
G01 X-20.1092 Y39.4508 
G01 X-20.1092 Y39.2892 
G01 X-20.1407 Y39.1307 
G01 X-20.2026 Y38.9814 
G01 X-20.2924 Y38.8470 
G01 X-20.4066 Y38.7328 
G01 X-20.5410 Y38.6430 
G01 X-20.6903 Y38.5811 
G01 X-20.8488 Y38.5496 
G01 X-21.1252 Y38.5496 
G01 X-21.1252 Y37.6504 
G01 X-20.8488 Y37.6504 
G01 X-20.6903 Y37.6189 
G01 X-20.5410 Y37.5570 
G01 X-20.4066 Y37.4672 
G01 X-20.2924 Y37.3530 
G01 X-20.2026 Y37.2186 
G01 X-20.1407 Y37.0693 
G01 X-20.1092 Y36.9108 
G01 X-20.1092 Y36.7492 
G01 X-20.1407 Y36.5907 
G01 X-20.2026 Y36.4414 
G01 X-20.2924 Y36.3070 
G01 X-20.4066 Y36.1928 
G01 X-20.5410 Y36.1030 
G01 X-20.6903 Y36.0411 
G01 X-20.8488 Y36.0096 
G00 Z2.0000  
G00 X-20.8488 Y43.6296 
G01 Z-0.2200 F200   
G01 X-22.3312 Y43.6296 F300   
G01 X-22.4897 Y43.6611 
G01 X-22.6390 Y43.7230 
G01 X-22.7734 Y43.8128 
G01 X-22.8066 Y43.8460 
G01 X-25.0281 Y41.6246 
G01 X-25.1146 Y41.5381 
G01 X-25.2206 Y41.4769 
G01 X-25.3388 Y41.4452 
G01 X-30.4135 Y41.4452 
G01 X-30.4524 Y41.3870 
G01 X-30.5666 Y41.2728 
G01 X-30.7010 Y41.1830 
G01 X-30.8503 Y41.1211 
G01 X-31.0088 Y41.0896 
G01 X-32.4912 Y41.0896 
G01 X-32.6497 Y41.1211 
G01 X-32.7990 Y41.1830 
G01 X-32.9334 Y41.2728 
G01 X-33.0476 Y41.3870 
G01 X-33.1374 Y41.5214 
G01 X-33.1993 Y41.6707 
G01 X-33.2308 Y41.8292 
G01 X-33.2308 Y41.9908 
G01 X-33.1993 Y42.1493 
G01 X-33.1374 Y42.2986 
G01 X-33.0476 Y42.4330 
G01 X-32.9334 Y42.5472 
G01 X-32.7990 Y42.6370 
G01 X-32.6497 Y42.6989 
G01 X-32.4912 Y42.7304 
G01 X-31.0088 Y42.7304 
G01 X-30.8503 Y42.6989 
G01 X-30.7010 Y42.6370 
G01 X-30.5666 Y42.5472 
G01 X-30.4524 Y42.4330 
G01 X-30.4135 Y42.3748 
G01 X-25.5925 Y42.3748 
G01 X-23.1454 Y44.8219 
G01 X-23.0394 Y44.8831 
G01 X-22.9277 Y44.9131 
G01 X-22.8876 Y44.9730 
G01 X-22.7734 Y45.0872 
G01 X-22.6390 Y45.1770 
G01 X-22.4897 Y45.2389 
G01 X-22.3312 Y45.2704 
G01 X-20.8488 Y45.2704 
G01 X-20.6903 Y45.2389 
G01 X-20.5410 Y45.1770 
G01 X-20.4066 Y45.0872 
G01 X-20.2924 Y44.9730 
G01 X-20.2026 Y44.8386 
G01 X-20.1407 Y44.6893 
G01 X-20.1092 Y44.5308 
G01 X-20.1092 Y44.3692 
G01 X-20.1407 Y44.2107 
G01 X-20.2026 Y44.0614 
G01 X-20.2924 Y43.9270 
G01 X-20.4066 Y43.8128 
G01 X-20.5410 Y43.7230 
G01 X-20.6903 Y43.6611 
G01 X-20.8488 Y43.6296 
G00 Z2.0000  
G00 X-9.6312 Y40.1904 
G01 Z-0.2200 F200   
G01 X-8.1488 Y40.1904 F300   
G01 X-8.0211 Y40.1650 
G01 X-6.3117 Y40.1650 
G01 X-6.2787 Y40.1871 
G01 X-6.1109 Y40.2566 
G01 X-5.9328 Y40.2920 
G01 X-4.2272 Y40.2920 
G01 X-4.0491 Y40.2566 
G01 X-3.8813 Y40.1871 
G01 X-3.7303 Y40.0862 
G01 X-3.6018 Y39.9577 
G01 X-3.5009 Y39.8067 
G01 X-3.4314 Y39.6389 
G01 X-3.3960 Y39.4608 
G01 X-3.3960 Y39.2792 
G01 X-3.4314 Y39.1011 
G01 X-3.5009 Y38.9333 
G01 X-3.6018 Y38.7823 
G01 X-3.7303 Y38.6538 
G01 X-3.8813 Y38.5529 
G01 X-4.0491 Y38.4834 
G01 X-4.2272 Y38.4480 
G01 X-5.9328 Y38.4480 
G01 X-6.1109 Y38.4834 
G01 X-6.2787 Y38.5529 
G01 X-6.3117 Y38.5750 
G01 X-8.0211 Y38.5750 
G01 X-8.1488 Y38.5496 
G01 X-9.6312 Y38.5496 
G01 X-9.7897 Y38.5811 
G01 X-9.9390 Y38.6430 
G01 X-10.0734 Y38.7328 
G01 X-10.1876 Y38.8470 
G01 X-10.2774 Y38.9814 
G01 X-10.3393 Y39.1307 
G01 X-10.3708 Y39.2892 
G01 X-10.3708 Y39.4508 
G01 X-10.3393 Y39.6093 
G01 X-10.2774 Y39.7586 
G01 X-10.1876 Y39.8930 
G01 X-10.0734 Y40.0072 
G01 X-9.9390 Y40.0970 
G01 X-9.7897 Y40.1589 
G01 X-9.6312 Y40.1904 
G00 Z2.0000  
G00 X-9.6312 Y35.1104 
G01 Z-0.2200 F200   
G01 X-8.1488 Y35.1104 F300   
G01 X-8.0211 Y35.0850 
G01 X-6.3117 Y35.0850 
G01 X-6.2787 Y35.1071 
G01 X-6.1109 Y35.1766 
G01 X-5.9328 Y35.2120 
G01 X-4.2272 Y35.2120 
G01 X-4.0491 Y35.1766 
G01 X-3.8813 Y35.1071 
G01 X-3.7303 Y35.0062 
G01 X-3.6018 Y34.8777 
G01 X-3.5009 Y34.7267 
G01 X-3.4314 Y34.5589 
G01 X-3.3960 Y34.3808 
G01 X-3.3960 Y34.1992 
G01 X-3.4314 Y34.0211 
G01 X-3.5009 Y33.8533 
G01 X-3.6018 Y33.7023 
G01 X-3.7303 Y33.5738 
G01 X-3.8813 Y33.4729 
G01 X-4.0491 Y33.4034 
G01 X-4.2272 Y33.3680 
G01 X-5.9328 Y33.3680 
G01 X-6.1109 Y33.4034 
G01 X-6.2787 Y33.4729 
G01 X-6.3117 Y33.4950 
G01 X-8.0211 Y33.4950 
G01 X-8.1488 Y33.4696 
G01 X-9.6312 Y33.4696 
G01 X-9.7897 Y33.5011 
G01 X-9.9390 Y33.5630 
G01 X-10.0734 Y33.6528 
G01 X-10.1876 Y33.7670 
G01 X-10.2774 Y33.9014 
G01 X-10.3393 Y34.0507 
G01 X-10.3708 Y34.2092 
G01 X-10.3708 Y34.3708 
G01 X-10.3393 Y34.5293 
G01 X-10.2774 Y34.6786 
G01 X-10.1876 Y34.8130 
G01 X-10.0734 Y34.9272 
G01 X-9.9390 Y35.0170 
G01 X-9.7897 Y35.0789 
G01 X-9.6312 Y35.1104 
G00 Z2.0000  
G00 X-86.0000 Y13.5482 
G01 Z-0.2200 F200   
G01 X-86.0000 Y15.6118 F300   
G01 X-85.9756 Y15.6706 
G01 X-85.9306 Y15.7156 
G01 X-85.8718 Y15.7400 
G01 X-84.3082 Y15.7400 
G01 X-84.2494 Y15.7156 
G01 X-84.2044 Y15.6706 
G01 X-84.1800 Y15.6118 
G01 X-84.1800 Y13.5482 
G01 X-84.2044 Y13.4894 
G01 X-84.2494 Y13.4444 
G01 X-84.3082 Y13.4200 
G01 X-85.8718 Y13.4200 
G01 X-85.9306 Y13.4444 
G01 X-85.9756 Y13.4894 
G01 X-86.0000 Y13.5482 
G00 Z2.0000  
G00 X-63.0882 Y44.9600 
G01 Z-0.2200 F200   
G01 X-64.3518 Y44.9600 F300   
G01 X-64.4106 Y44.9844 
G01 X-64.4556 Y45.0294 
G01 X-64.4800 Y45.0882 
G01 X-64.4800 Y46.3518 
G01 X-64.4556 Y46.4106 
G01 X-64.4106 Y46.4556 
G01 X-64.3518 Y46.4800 
G01 X-63.0882 Y46.4800 
G01 X-63.0294 Y46.4556 
G01 X-62.9844 Y46.4106 
G01 X-62.9600 Y46.3518 
G01 X-62.9600 Y46.1848 
G01 X-61.4500 Y46.1848 
G01 X-61.4500 Y46.5518 
G01 X-61.4256 Y46.6106 
G01 X-61.3806 Y46.6556 
G01 X-61.3218 Y46.6800 
G01 X-59.9582 Y46.6800 
G01 X-59.8994 Y46.6556 
G01 X-59.8544 Y46.6106 
G01 X-59.8300 Y46.5518 
G01 X-59.8300 Y44.8882 
G01 X-59.8544 Y44.8294 
G01 X-59.8994 Y44.7844 
G01 X-59.9582 Y44.7600 
G01 X-61.3218 Y44.7600 
G01 X-61.3806 Y44.7844 
G01 X-61.4256 Y44.8294 
G01 X-61.4500 Y44.8882 
G01 X-61.4500 Y45.2552 
G01 X-62.9600 Y45.2552 
G01 X-62.9600 Y45.0882 
G01 X-62.9844 Y45.0294 
G01 X-63.0294 Y44.9844 
G01 X-63.0882 Y44.9600 
G00 Z2.0000  
G00 X-65.1882 Y44.9600 
G01 Z-0.2200 F200   
G01 X-66.4518 Y44.9600 F300   
G01 X-66.5106 Y44.9844 
G01 X-66.5556 Y45.0294 
G01 X-66.5800 Y45.0882 
G01 X-66.5800 Y45.8227 
G01 X-68.5525 Y47.7952 
G01 X-74.4652 Y47.7952 
G01 X-74.4652 Y46.7182 
G01 X-73.9935 Y46.7182 
G01 X-73.8006 Y46.6798 
G01 X-73.6190 Y46.6046 
G01 X-73.4555 Y46.4954 
G01 X-73.3164 Y46.3563 
G01 X-73.2072 Y46.1928 
G01 X-73.2039 Y46.1848 
G01 X-72.9300 Y46.1848 
G01 X-72.9300 Y46.5518 
G01 X-72.9056 Y46.6106 
G01 X-72.8606 Y46.6556 
G01 X-72.8018 Y46.6800 
G01 X-71.4382 Y46.6800 
G01 X-71.3794 Y46.6556 
G01 X-71.3344 Y46.6106 
G01 X-71.3100 Y46.5518 
G01 X-71.3100 Y44.8882 
G01 X-71.3344 Y44.8294 
G01 X-71.3794 Y44.7844 
G01 X-71.4382 Y44.7600 
G01 X-72.8018 Y44.7600 
G01 X-72.8606 Y44.7844 
G01 X-72.9056 Y44.8294 
G01 X-72.9300 Y44.8882 
G01 X-72.9300 Y45.2552 
G01 X-73.2039 Y45.2552 
G01 X-73.2072 Y45.2472 
G01 X-73.3164 Y45.0837 
G01 X-73.4555 Y44.9446 
G01 X-73.6190 Y44.8354 
G01 X-73.8006 Y44.7602 
G01 X-73.9935 Y44.7218 
G01 X-75.8665 Y44.7218 
G01 X-76.0594 Y44.7602 
G01 X-76.2410 Y44.8354 
G01 X-76.4045 Y44.9446 
G01 X-76.5436 Y45.0837 
G01 X-76.6528 Y45.2472 
G01 X-76.7280 Y45.4288 
G01 X-76.7664 Y45.6217 
G01 X-76.7664 Y45.8183 
G01 X-76.7280 Y46.0112 
G01 X-76.6528 Y46.1928 
G01 X-76.5436 Y46.3563 
G01 X-76.4045 Y46.4954 
G01 X-76.2410 Y46.6046 
G01 X-76.0594 Y46.6798 
G01 X-75.8665 Y46.7182 
G01 X-75.3948 Y46.7182 
G01 X-75.3948 Y51.6052 
G01 X-96.0552 Y51.6052 
G01 X-96.0552 Y34.7548 
G01 X-87.5688 Y34.7548 
G01 X-87.4506 Y34.7231 
G01 X-87.3446 Y34.6619 
G01 X-87.2581 Y34.5754 
G01 X-87.1969 Y34.4694 
G01 X-87.1652 Y34.3512 
G01 X-87.1652 Y30.9448 
G01 X-86.6503 Y30.9448 
G01 X-86.5682 Y31.0677 
G01 X-86.4397 Y31.1962 
G01 X-86.2887 Y31.2971 
G01 X-86.1209 Y31.3666 
G01 X-85.9428 Y31.4020 
G01 X-84.2372 Y31.4020 
G01 X-84.0591 Y31.3666 
G01 X-83.8913 Y31.2971 
G01 X-83.7403 Y31.1962 
G01 X-83.6118 Y31.0677 
G01 X-83.5109 Y30.9167 
G01 X-83.4414 Y30.7489 
G01 X-83.4060 Y30.5708 
G01 X-83.4060 Y30.3892 
G01 X-83.4414 Y30.2111 
G01 X-83.5109 Y30.0433 
G01 X-83.6118 Y29.8923 
G01 X-83.7403 Y29.7638 
G01 X-83.8913 Y29.6629 
G01 X-84.0591 Y29.5934 
G01 X-84.2372 Y29.5580 
G01 X-85.9428 Y29.5580 
G01 X-86.1209 Y29.5934 
G01 X-86.2887 Y29.6629 
G01 X-86.4397 Y29.7638 
G01 X-86.5682 Y29.8923 
G01 X-86.6503 Y30.0152 
G01 X-87.1652 Y30.0152 
G01 X-87.1652 Y21.2079 
G01 X-87.1572 Y21.2046 
G01 X-86.9937 Y21.0953 
G01 X-86.8546 Y20.9563 
G01 X-86.7454 Y20.7928 
G01 X-86.6702 Y20.6112 
G01 X-86.6318 Y20.4183 
G01 X-86.6318 Y20.2217 
G01 X-86.6702 Y20.0288 
G01 X-86.7454 Y19.8472 
G01 X-86.8546 Y19.6837 
G01 X-86.9937 Y19.5446 
G01 X-87.1572 Y19.4354 
G01 X-87.1652 Y19.4321 
G01 X-87.1652 Y18.7400 
G01 X-86.6782 Y18.7400 
G01 X-86.6194 Y18.7156 
G01 X-86.5744 Y18.6706 
G01 X-86.5500 Y18.6118 
G01 X-86.5500 Y16.9482 
G01 X-86.5744 Y16.8894 
G01 X-86.6194 Y16.8444 
G01 X-86.6782 Y16.8200 
G01 X-86.8952 Y16.8200 
G01 X-86.8952 Y15.7400 
G01 X-86.6082 Y15.7400 
G01 X-86.5494 Y15.7156 
G01 X-86.5044 Y15.6706 
G01 X-86.4800 Y15.6118 
G01 X-86.4800 Y13.5482 
G01 X-86.5044 Y13.4894 
G01 X-86.5494 Y13.4444 
G01 X-86.6082 Y13.4200 
G01 X-88.1718 Y13.4200 
G01 X-88.2306 Y13.4444 
G01 X-88.2756 Y13.4894 
G01 X-88.3000 Y13.5482 
G01 X-88.3000 Y15.6118 
G01 X-88.2756 Y15.6706 
G01 X-88.2306 Y15.7156 
G01 X-88.1718 Y15.7400 
G01 X-87.8248 Y15.7400 
G01 X-87.8248 Y16.8200 
G01 X-88.0418 Y16.8200 
G01 X-88.1006 Y16.8444 
G01 X-88.1456 Y16.8894 
G01 X-88.1700 Y16.9482 
G01 X-88.1700 Y18.6118 
G01 X-88.1456 Y18.6706 
G01 X-88.1006 Y18.7156 
G01 X-88.0948 Y18.7181 
G01 X-88.0948 Y19.4321 
G01 X-88.1028 Y19.4354 
G01 X-88.2663 Y19.5446 
G01 X-88.4053 Y19.6837 
G01 X-88.5146 Y19.8472 
G01 X-88.5898 Y20.0288 
G01 X-88.6282 Y20.2217 
G01 X-88.6282 Y20.4183 
G01 X-88.5898 Y20.6112 
G01 X-88.5146 Y20.7928 
G01 X-88.4053 Y20.9563 
G01 X-88.2663 Y21.0953 
G01 X-88.1028 Y21.2046 
G01 X-88.0948 Y21.2079 
G01 X-88.0948 Y33.8252 
G01 X-96.5812 Y33.8252 
G01 X-96.6994 Y33.8569 
G01 X-96.8054 Y33.9181 
G01 X-96.8919 Y34.0046 
G01 X-96.9531 Y34.1106 
G01 X-96.9848 Y34.2288 
G01 X-96.9848 Y52.1312 
G01 X-96.9531 Y52.2494 
G01 X-96.8919 Y52.3554 
G01 X-96.8054 Y52.4419 
G01 X-96.6994 Y52.5031 
G01 X-96.5812 Y52.5348 
G01 X-74.8688 Y52.5348 
G01 X-74.7506 Y52.5031 
G01 X-74.6446 Y52.4419 
G01 X-74.5581 Y52.3554 
G01 X-74.4969 Y52.2494 
G01 X-74.4652 Y52.1312 
G01 X-74.4652 Y48.7248 
G01 X-68.2988 Y48.7248 
G01 X-68.1806 Y48.6931 
G01 X-68.0746 Y48.6319 
G01 X-67.9881 Y48.5454 
G01 X-65.9227 Y46.4800 
G01 X-65.1882 Y46.4800 
G01 X-65.1294 Y46.4556 
G01 X-65.0844 Y46.4106 
G01 X-65.0600 Y46.3518 
G01 X-65.0600 Y45.0882 
G01 X-65.0844 Y45.0294 
G01 X-65.1294 Y44.9844 
G01 X-65.1882 Y44.9600 
G00 Z2.0000  
G00 X-4.2272 Y9.2380  
G01 Z-0.2200 F200   
G01 X-5.9328 Y9.2380  F300   
G01 X-6.1109 Y9.2734  
G01 X-6.2787 Y9.3429  
G01 X-6.3117 Y9.3650  
G01 X-8.0211 Y9.3650  
G01 X-8.1488 Y9.3396  
G01 X-9.6312 Y9.3396  
G01 X-9.7897 Y9.3711  
G01 X-9.9390 Y9.4330  
G01 X-10.0734 Y9.5228  
G01 X-10.1876 Y9.6370  
G01 X-10.2774 Y9.7714  
G01 X-10.3393 Y9.9207  
G01 X-10.3708 Y10.0792 
G01 X-10.3708 Y10.2408 
G01 X-10.3393 Y10.3993 
G01 X-10.2774 Y10.5486 
G01 X-10.1876 Y10.6830 
G01 X-10.0734 Y10.7972 
G01 X-9.9390 Y10.8870 
G01 X-9.7897 Y10.9489 
G01 X-9.6312 Y10.9804 
G01 X-8.1488 Y10.9804 
G01 X-8.0211 Y10.9550 
G01 X-6.3117 Y10.9550 
G01 X-6.2787 Y10.9771 
G01 X-6.1109 Y11.0466 
G01 X-5.9328 Y11.0820 
G01 X-4.2272 Y11.0820 
G01 X-4.0491 Y11.0466 
G01 X-3.8813 Y10.9771 
G01 X-3.7303 Y10.8762 
G01 X-3.6018 Y10.7477 
G01 X-3.5009 Y10.5967 
G01 X-3.4314 Y10.4289 
G01 X-3.3960 Y10.2508 
G01 X-3.3960 Y10.0692 
G01 X-3.4314 Y9.8911  
G01 X-3.5009 Y9.7233  
G01 X-3.6018 Y9.5723  
G01 X-3.7303 Y9.4438  
G01 X-3.8813 Y9.3429  
G01 X-4.0491 Y9.2734  
G01 X-4.2272 Y9.2380  
G00 Z2.0000  
G00 X-4.2272 Y14.3180 
G01 Z-0.2200 F200   
G01 X-5.9328 Y14.3180 F300   
G01 X-6.1109 Y14.3534 
G01 X-6.2787 Y14.4229 
G01 X-6.3117 Y14.4450 
G01 X-8.0211 Y14.4450 
G01 X-8.1488 Y14.4196 
G01 X-9.6312 Y14.4196 
G01 X-9.7897 Y14.4511 
G01 X-9.9390 Y14.5130 
G01 X-10.0734 Y14.6028 
G01 X-10.1876 Y14.7170 
G01 X-10.2774 Y14.8514 
G01 X-10.3393 Y15.0007 
G01 X-10.3708 Y15.1592 
G01 X-10.3708 Y15.3208 
G01 X-10.3393 Y15.4793 
G01 X-10.2774 Y15.6286 
G01 X-10.1876 Y15.7630 
G01 X-10.0734 Y15.8772 
G01 X-9.9390 Y15.9670 
G01 X-9.7897 Y16.0289 
G01 X-9.6312 Y16.0604 
G01 X-8.1488 Y16.0604 
G01 X-8.0211 Y16.0350 
G01 X-6.3117 Y16.0350 
G01 X-6.2787 Y16.0571 
G01 X-6.1109 Y16.1266 
G01 X-5.9328 Y16.1620 
G01 X-4.2272 Y16.1620 
G01 X-4.0491 Y16.1266 
G01 X-3.8813 Y16.0571 
G01 X-3.7303 Y15.9562 
G01 X-3.6018 Y15.8277 
G01 X-3.5009 Y15.6767 
G01 X-3.4314 Y15.5089 
G01 X-3.3960 Y15.3308 
G01 X-3.3960 Y15.1492 
G01 X-3.4314 Y14.9711 
G01 X-3.5009 Y14.8033 
G01 X-3.6018 Y14.6523 
G01 X-3.7303 Y14.5238 
G01 X-3.8813 Y14.4229 
G01 X-4.0491 Y14.3534 
G01 X-4.2272 Y14.3180 
G00 Z2.0000  
G00 X-4.2272 Y30.8280 
G01 Z-0.2200 F200   
G01 X-5.9328 Y30.8280 F300   
G01 X-6.1109 Y30.8634 
G01 X-6.2787 Y30.9329 
G01 X-6.3117 Y30.9550 
G01 X-8.0211 Y30.9550 
G01 X-8.1488 Y30.9296 
G01 X-9.6312 Y30.9296 
G01 X-9.7897 Y30.9611 
G01 X-9.9390 Y31.0230 
G01 X-10.0734 Y31.1128 
G01 X-10.1876 Y31.2270 
G01 X-10.2774 Y31.3614 
G01 X-10.3393 Y31.5107 
G01 X-10.3708 Y31.6692 
G01 X-10.3708 Y31.8308 
G01 X-10.3393 Y31.9893 
G01 X-10.2774 Y32.1386 
G01 X-10.1876 Y32.2730 
G01 X-10.0734 Y32.3872 
G01 X-9.9390 Y32.4770 
G01 X-9.7897 Y32.5389 
G01 X-9.6312 Y32.5704 
G01 X-8.1488 Y32.5704 
G01 X-8.0211 Y32.5450 
G01 X-6.3117 Y32.5450 
G01 X-6.2787 Y32.5671 
G01 X-6.1109 Y32.6366 
G01 X-5.9328 Y32.6720 
G01 X-4.2272 Y32.6720 
G01 X-4.0491 Y32.6366 
G01 X-3.8813 Y32.5671 
G01 X-3.7303 Y32.4662 
G01 X-3.6018 Y32.3377 
G01 X-3.5009 Y32.1867 
G01 X-3.4314 Y32.0189 
G01 X-3.3960 Y31.8408 
G01 X-3.3960 Y31.6592 
G01 X-3.4314 Y31.4811 
G01 X-3.5009 Y31.3133 
G01 X-3.6018 Y31.1623 
G01 X-3.7303 Y31.0338 
G01 X-3.8813 Y30.9329 
G01 X-4.0491 Y30.8634 
G01 X-4.2272 Y30.8280 
G00 Z2.0000  
G00 X-4.2272 Y35.9080 
G01 Z-0.2200 F200   
G01 X-5.9328 Y35.9080 F300   
G01 X-6.1109 Y35.9434 
G01 X-6.2787 Y36.0129 
G01 X-6.3117 Y36.0350 
G01 X-8.0211 Y36.0350 
G01 X-8.1488 Y36.0096 
G01 X-9.6312 Y36.0096 
G01 X-9.7897 Y36.0411 
G01 X-9.9390 Y36.1030 
G01 X-10.0734 Y36.1928 
G01 X-10.1876 Y36.3070 
G01 X-10.2774 Y36.4414 
G01 X-10.3393 Y36.5907 
G01 X-10.3708 Y36.7492 
G01 X-10.3708 Y36.9108 
G01 X-10.3393 Y37.0693 
G01 X-10.2774 Y37.2186 
G01 X-10.1876 Y37.3530 
G01 X-10.0734 Y37.4672 
G01 X-9.9390 Y37.5570 
G01 X-9.7897 Y37.6189 
G01 X-9.6312 Y37.6504 
G01 X-8.1488 Y37.6504 
G01 X-8.0211 Y37.6250 
G01 X-6.3117 Y37.6250 
G01 X-6.2787 Y37.6471 
G01 X-6.1109 Y37.7166 
G01 X-5.9328 Y37.7520 
G01 X-4.2272 Y37.7520 
G01 X-4.0491 Y37.7166 
G01 X-3.8813 Y37.6471 
G01 X-3.7303 Y37.5462 
G01 X-3.6018 Y37.4177 
G01 X-3.5009 Y37.2667 
G01 X-3.4314 Y37.0989 
G01 X-3.3960 Y36.9208 
G01 X-3.3960 Y36.7392 
G01 X-3.4314 Y36.5611 
G01 X-3.5009 Y36.3933 
G01 X-3.6018 Y36.2423 
G01 X-3.7303 Y36.1138 
G01 X-3.8813 Y36.0129 
G01 X-4.0491 Y35.9434 
G01 X-4.2272 Y35.9080 
G00 Z2.0000  
G00 X-33.4696 Y4.5512  
G01 Z-0.2200 F200   
G01 X-33.4696 Y3.0688  F300   
G01 X-33.5011 Y2.9103  
G01 X-33.5630 Y2.7610  
G01 X-33.6528 Y2.6266  
G01 X-33.7670 Y2.5124  
G01 X-33.8269 Y2.4723  
G01 X-33.8569 Y2.3606  
G01 X-33.9181 Y2.2546  
G01 X-35.1881 Y0.9846  
G01 X-35.2746 Y0.8981  
G01 X-35.3806 Y0.8369  
G01 X-35.4988 Y0.8052  
G01 X-47.6862 Y0.8052  
G01 X-47.8044 Y0.8369  
G01 X-47.9104 Y0.8981  
G01 X-49.1804 Y2.1681  
G01 X-49.2669 Y2.2546  
G01 X-49.3281 Y2.3606  
G01 X-49.3598 Y2.4788  
G01 X-49.3598 Y5.1412  
G01 X-49.3281 Y5.2594  
G01 X-49.2669 Y5.3654  
G01 X-47.9969 Y6.6354  
G01 X-47.9104 Y6.7219  
G01 X-47.8044 Y6.7831  
G01 X-47.6862 Y6.8148  
G01 X-43.3725 Y6.8148  
G01 X-42.3748 Y7.8125  
G01 X-42.3748 Y14.0312 
G01 X-42.3431 Y14.1494 
G01 X-42.2819 Y14.2554 
G01 X-37.2948 Y19.2425 
G01 X-37.2948 Y22.9212 
G01 X-37.2631 Y23.0394 
G01 X-37.2019 Y23.1454 
G01 X-33.3919 Y26.9554 
G01 X-33.3054 Y27.0419 
G01 X-33.1994 Y27.1031 
G01 X-33.0877 Y27.1331 
G01 X-33.0476 Y27.1930 
G01 X-32.9334 Y27.3072 
G01 X-32.7990 Y27.3970 
G01 X-32.6497 Y27.4589 
G01 X-32.4912 Y27.4904 
G01 X-31.0088 Y27.4904 
G01 X-30.8503 Y27.4589 
G01 X-30.7010 Y27.3970 
G01 X-30.5666 Y27.3072 
G01 X-30.4524 Y27.1930 
G01 X-30.3626 Y27.0586 
G01 X-30.3007 Y26.9093 
G01 X-30.2692 Y26.7508 
G01 X-30.2692 Y26.5892 
G01 X-30.3007 Y26.4307 
G01 X-30.3626 Y26.2814 
G01 X-30.4524 Y26.1470 
G01 X-30.5666 Y26.0328 
G01 X-30.7010 Y25.9430 
G01 X-30.8503 Y25.8811 
G01 X-31.0088 Y25.8496 
G01 X-32.4912 Y25.8496 
G01 X-32.6497 Y25.8811 
G01 X-32.7990 Y25.9430 
G01 X-32.9334 Y26.0328 
G01 X-32.9666 Y26.0660 
G01 X-36.3652 Y22.6675 
G01 X-36.3652 Y18.9888 
G01 X-36.3969 Y18.8706 
G01 X-36.4581 Y18.7646 
G01 X-36.5446 Y18.6781 
G01 X-41.4452 Y13.7775 
G01 X-41.4452 Y7.5588  
G01 X-41.4769 Y7.4406  
G01 X-41.5381 Y7.3346  
G01 X-41.6246 Y7.2481  
G01 X-42.8946 Y5.9781  
G01 X-43.0006 Y5.9169  
G01 X-43.1188 Y5.8852  
G01 X-47.4325 Y5.8852  
G01 X-48.4302 Y4.8875  
G01 X-48.4302 Y2.7325  
G01 X-47.4325 Y1.7348  
G01 X-35.7525 Y1.7348  
G01 X-34.8940 Y2.5934  
G01 X-34.9272 Y2.6266  
G01 X-35.0170 Y2.7610  
G01 X-35.0789 Y2.9103  
G01 X-35.1104 Y3.0688  
G01 X-35.1104 Y4.5512  
G01 X-35.0789 Y4.7097  
G01 X-35.0170 Y4.8590  
G01 X-34.9272 Y4.9934  
G01 X-34.8130 Y5.1076  
G01 X-34.6786 Y5.1974  
G01 X-34.5293 Y5.2593  
G01 X-34.3708 Y5.2908  
G01 X-34.2092 Y5.2908  
G01 X-34.0507 Y5.2593  
G01 X-33.9014 Y5.1974  
G01 X-33.7670 Y5.1076  
G01 X-33.6528 Y4.9934  
G01 X-33.5630 Y4.8590  
G01 X-33.5011 Y4.7097  
G01 X-33.4696 Y4.5512  
G00 Z2.0000  
G00 X-38.5496 Y4.5512  
G01 Z-0.2200 F200   
G01 X-38.5496 Y3.0688  F300   
G01 X-38.5811 Y2.9103  
G01 X-38.6430 Y2.7610  
G01 X-38.7328 Y2.6266  
G01 X-38.8470 Y2.5124  
G01 X-38.9814 Y2.4226  
G01 X-39.1307 Y2.3607  
G01 X-39.2892 Y2.3292  
G01 X-39.4508 Y2.3292  
G01 X-39.6093 Y2.3607  
G01 X-39.7586 Y2.4226  
G01 X-39.8930 Y2.5124  
G01 X-40.0072 Y2.6266  
G01 X-40.0970 Y2.7610  
G01 X-40.1589 Y2.9103  
G01 X-40.1904 Y3.0688  
G01 X-40.1904 Y4.5512  
G01 X-40.1589 Y4.7097  
G01 X-40.0970 Y4.8590  
G01 X-40.0072 Y4.9934  
G01 X-39.8930 Y5.1076  
G01 X-39.7586 Y5.1974  
G01 X-39.6093 Y5.2593  
G01 X-39.4508 Y5.2908  
G01 X-39.2892 Y5.2908  
G01 X-39.1307 Y5.2593  
G01 X-38.9814 Y5.1974  
G01 X-38.8470 Y5.1076  
G01 X-38.7328 Y4.9934  
G01 X-38.6430 Y4.8590  
G01 X-38.5811 Y4.7097  
G01 X-38.5496 Y4.5512  
G00 Z2.0000  
G00 X-41.0896 Y4.5512  
G01 Z-0.2200 F200   
G01 X-41.0896 Y3.0688  F300   
G01 X-41.1211 Y2.9103  
G01 X-41.1830 Y2.7610  
G01 X-41.2728 Y2.6266  
G01 X-41.3870 Y2.5124  
G01 X-41.5214 Y2.4226  
G01 X-41.6707 Y2.3607  
G01 X-41.8292 Y2.3292  
G01 X-41.9908 Y2.3292  
G01 X-42.1493 Y2.3607  
G01 X-42.2986 Y2.4226  
G01 X-42.4330 Y2.5124  
G01 X-42.5472 Y2.6266  
G01 X-42.6370 Y2.7610  
G01 X-42.6989 Y2.9103  
G01 X-42.7304 Y3.0688  
G01 X-42.7304 Y4.5512  
G01 X-42.6989 Y4.7097  
G01 X-42.6370 Y4.8590  
G01 X-42.5472 Y4.9934  
G01 X-42.4330 Y5.1076  
G01 X-42.2986 Y5.1974  
G01 X-42.1493 Y5.2593  
G01 X-41.9908 Y5.2908  
G01 X-41.8292 Y5.2908  
G01 X-41.6707 Y5.2593  
G01 X-41.5214 Y5.1974  
G01 X-41.3870 Y5.1076  
G01 X-41.2728 Y4.9934  
G01 X-41.1830 Y4.8590  
G01 X-41.1211 Y4.7097  
G01 X-41.0896 Y4.5512  
G00 Z2.0000  
G00 X-43.6296 Y4.5512  
G01 Z-0.2200 F200   
G01 X-43.6296 Y3.0688  F300   
G01 X-43.6611 Y2.9103  
G01 X-43.7230 Y2.7610  
G01 X-43.8128 Y2.6266  
G01 X-43.9270 Y2.5124  
G01 X-44.0614 Y2.4226  
G01 X-44.2107 Y2.3607  
G01 X-44.3692 Y2.3292  
G01 X-44.5308 Y2.3292  
G01 X-44.6893 Y2.3607  
G01 X-44.8386 Y2.4226  
G01 X-44.9730 Y2.5124  
G01 X-45.0872 Y2.6266  
G01 X-45.1770 Y2.7610  
G01 X-45.2389 Y2.9103  
G01 X-45.2704 Y3.0688  
G01 X-45.2704 Y4.5512  
G01 X-45.2389 Y4.7097  
G01 X-45.1770 Y4.8590  
G01 X-45.0872 Y4.9934  
G01 X-44.9730 Y5.1076  
G01 X-44.8386 Y5.1974  
G01 X-44.6893 Y5.2593  
G01 X-44.5308 Y5.2908  
G01 X-44.3692 Y5.2908  
G01 X-44.2107 Y5.2593  
G01 X-44.0614 Y5.1974  
G01 X-43.9270 Y5.1076  
G01 X-43.8128 Y4.9934  
G01 X-43.7230 Y4.8590  
G01 X-43.6611 Y4.7097  
G01 X-43.6296 Y4.5512  
G00 Z2.0000  
G00 X-46.1696 Y4.5512  
G01 Z-0.2200 F200   
G01 X-46.1696 Y3.0688  F300   
G01 X-46.2011 Y2.9103  
G01 X-46.2630 Y2.7610  
G01 X-46.3528 Y2.6266  
G01 X-46.4670 Y2.5124  
G01 X-46.6014 Y2.4226  
G01 X-46.7507 Y2.3607  
G01 X-46.9092 Y2.3292  
G01 X-47.0708 Y2.3292  
G01 X-47.2293 Y2.3607  
G01 X-47.3786 Y2.4226  
G01 X-47.5130 Y2.5124  
G01 X-47.6272 Y2.6266  
G01 X-47.7170 Y2.7610  
G01 X-47.7789 Y2.9103  
G01 X-47.8104 Y3.0688  
G01 X-47.8104 Y4.5512  
G01 X-47.7789 Y4.7097  
G01 X-47.7170 Y4.8590  
G01 X-47.6272 Y4.9934  
G01 X-47.5130 Y5.1076  
G01 X-47.3786 Y5.1974  
G01 X-47.2293 Y5.2593  
G01 X-47.0708 Y5.2908  
G01 X-46.9092 Y5.2908  
G01 X-46.7507 Y5.2593  
G01 X-46.6014 Y5.1974  
G01 X-46.4670 Y5.1076  
G01 X-46.3528 Y4.9934  
G01 X-46.2630 Y4.8590  
G01 X-46.2011 Y4.7097  
G01 X-46.1696 Y4.5512  
G00 Z2.0000  
G00 X-55.4418 Y39.2300 
G01 Z-0.2200 F200   
G01 X-53.7782 Y39.2300 F300   
G01 X-53.7194 Y39.2056 
G01 X-53.6744 Y39.1606 
G01 X-53.6500 Y39.1018 
G01 X-53.6500 Y37.7382 
G01 X-53.6744 Y37.6794 
G01 X-53.7194 Y37.6344 
G01 X-53.7782 Y37.6100 
G01 X-54.1452 Y37.6100 
G01 X-54.1452 Y34.7800 
G01 X-53.7782 Y34.7800 
G01 X-53.7194 Y34.7556 
G01 X-53.5325 Y34.7548 
G01 X-53.0769 Y35.2104 
G01 X-52.9904 Y35.2969 
G01 X-52.8844 Y35.3581 
G01 X-52.7662 Y35.3898 
G01 X-48.8338 Y35.3898 
G01 X-48.7156 Y35.3581 
G01 X-48.6096 Y35.2969 
G01 X-48.2066 Y34.8940 
G01 X-48.1734 Y34.9272 
G01 X-48.0390 Y35.0170 
G01 X-47.8897 Y35.0789 
G01 X-47.7312 Y35.1104 
G01 X-46.2488 Y35.1104 
G01 X-46.0903 Y35.0789 
G01 X-45.9410 Y35.0170 
G01 X-45.8066 Y34.9272 
G01 X-45.6924 Y34.8130 
G01 X-45.6026 Y34.6786 
G01 X-45.5407 Y34.5293 
G01 X-45.5092 Y34.3708 
G01 X-45.5092 Y34.2092 
G01 X-45.5407 Y34.0507 
G01 X-45.6026 Y33.9014 
G01 X-45.6924 Y33.7670 
G01 X-45.8066 Y33.6528 
G01 X-45.9410 Y33.5630 
G01 X-46.0903 Y33.5011 
G01 X-46.2488 Y33.4696 
G01 X-47.7312 Y33.4696 
G01 X-47.8897 Y33.5011 
G01 X-48.0390 Y33.5630 
G01 X-48.1734 Y33.6528 
G01 X-48.2876 Y33.7670 
G01 X-48.3277 Y33.8269 
G01 X-48.4394 Y33.8569 
G01 X-48.5454 Y33.9181 
G01 X-48.6319 Y34.0046 
G01 X-49.0875 Y34.4602 
G01 X-52.5125 Y34.4602 
G01 X-53.0546 Y33.9181 
G01 X-53.1606 Y33.8569 
G01 X-53.2788 Y33.8252 
G01 X-53.6500 Y33.8252 
G01 X-53.6500 Y33.2882 
G01 X-53.6744 Y33.2294 
G01 X-53.7194 Y33.1844 
G01 X-53.7782 Y33.1600 
G01 X-55.4418 Y33.1600 
G01 X-55.5006 Y33.1844 
G01 X-55.5456 Y33.2294 
G01 X-55.5700 Y33.2882 
G01 X-55.5700 Y34.6518 
G01 X-55.5456 Y34.7106 
G01 X-55.5006 Y34.7556 
G01 X-55.4418 Y34.7800 
G01 X-55.0748 Y34.7800 
G01 X-55.0748 Y37.6100 
G01 X-55.4418 Y37.6100 
G01 X-55.5006 Y37.6344 
G01 X-55.5456 Y37.6794 
G01 X-55.5700 Y37.7382 
G01 X-55.5700 Y39.1018 
G01 X-55.5456 Y39.1606 
G01 X-55.5006 Y39.2056 
G01 X-55.4418 Y39.2300 
G00 Z2.0000  
G00 X-55.4418 Y41.1300 
G01 Z-0.2200 F200   
G01 X-55.0748 Y41.1300 F300   
G01 X-55.0748 Y41.9712 
G01 X-55.0431 Y42.0894 
G01 X-54.9819 Y42.1954 
G01 X-54.8954 Y42.2819 
G01 X-51.0854 Y46.0919 
G01 X-50.9794 Y46.1531 
G01 X-50.8612 Y46.1848 
G01 X-30.6725 Y46.1848 
G01 X-29.6748 Y47.1825 
G01 X-29.6748 Y47.4724 
G01 X-29.8384 Y47.5553 
G01 X-29.9850 Y47.6618 
G01 X-30.1130 Y47.7898 
G01 X-30.2195 Y47.9364 
G01 X-30.3017 Y48.0977 
G01 X-30.3577 Y48.2700 
G01 X-30.3860 Y48.4488 
G01 X-30.3860 Y50.6112 
G01 X-30.3577 Y50.7900 
G01 X-30.3017 Y50.9623 
G01 X-30.2195 Y51.1236 
G01 X-30.1130 Y51.2702 
G01 X-29.9850 Y51.3982 
G01 X-29.8384 Y51.5047 
G01 X-29.6771 Y51.5869 
G01 X-29.5048 Y51.6429 
G01 X-29.3260 Y51.6712 
G01 X-29.1448 Y51.6712 
G01 X-28.9660 Y51.6429 
G01 X-28.7937 Y51.5869 
G01 X-28.6324 Y51.5047 
G01 X-28.4858 Y51.3982 
G01 X-28.3578 Y51.2702 
G01 X-28.2513 Y51.1236 
G01 X-28.1691 Y50.9623 
G01 X-28.1131 Y50.7900 
G01 X-28.0848 Y50.6112 
G01 X-28.0848 Y50.3250 
G01 X-14.5769 Y50.3250 
G01 X-14.4428 Y50.4146 
G01 X-14.2612 Y50.4898 
G01 X-14.0683 Y50.5282 
G01 X-13.8717 Y50.5282 
G01 X-13.6788 Y50.4898 
G01 X-13.4972 Y50.4146 
G01 X-13.3337 Y50.3054 
G01 X-13.1946 Y50.1663 
G01 X-13.0854 Y50.0028 
G01 X-13.0102 Y49.8212 
G01 X-12.9718 Y49.6283 
G01 X-12.9718 Y49.4317 
G01 X-13.0102 Y49.2388 
G01 X-13.0854 Y49.0572 
G01 X-13.1946 Y48.8937 
G01 X-13.3337 Y48.7546 
G01 X-13.4972 Y48.6454 
G01 X-13.6788 Y48.5702 
G01 X-13.8717 Y48.5318 
G01 X-14.0683 Y48.5318 
G01 X-14.2612 Y48.5702 
G01 X-14.4428 Y48.6454 
G01 X-14.5769 Y48.7350 
G01 X-28.0848 Y48.7350 
G01 X-28.0848 Y48.4488 
G01 X-28.1131 Y48.2700 
G01 X-28.1691 Y48.0977 
G01 X-28.2513 Y47.9364 
G01 X-28.3578 Y47.7898 
G01 X-28.4858 Y47.6618 
G01 X-28.6324 Y47.5553 
G01 X-28.7452 Y47.4978 
G01 X-28.7452 Y46.9288 
G01 X-28.7769 Y46.8106 
G01 X-28.8381 Y46.7046 
G01 X-30.1081 Y45.4346 
G01 X-30.1946 Y45.3481 
G01 X-30.3006 Y45.2869 
G01 X-30.4188 Y45.2552 
G01 X-50.6075 Y45.2552 
G01 X-54.1452 Y41.7175 
G01 X-54.1452 Y41.1300 
G01 X-53.7782 Y41.1300 
G01 X-53.7194 Y41.1056 
G01 X-53.6744 Y41.0606 
G01 X-53.6500 Y41.0018 
G01 X-53.6500 Y39.6382 
G01 X-53.6744 Y39.5794 
G01 X-53.7194 Y39.5344 
G01 X-53.7782 Y39.5100 
G01 X-55.4418 Y39.5100 
G01 X-55.5006 Y39.5344 
G01 X-55.5456 Y39.5794 
G01 X-55.5700 Y39.6382 
G01 X-55.5700 Y40.1752 
G01 X-70.1600 Y40.1752 
G01 X-70.1600 Y39.6882 
G01 X-70.1844 Y39.6294 
G01 X-70.2294 Y39.5844 
G01 X-70.2882 Y39.5600 
G01 X-71.9518 Y39.5600 
G01 X-72.0106 Y39.5844 
G01 X-72.0556 Y39.6294 
G01 X-72.0800 Y39.6882 
G01 X-72.0800 Y40.1752 
G01 X-73.2039 Y40.1752 
G01 X-73.2072 Y40.1672 
G01 X-73.3164 Y40.0037 
G01 X-73.4555 Y39.8646 
G01 X-73.6190 Y39.7554 
G01 X-73.8006 Y39.6802 
G01 X-73.9935 Y39.6418 
G01 X-75.8665 Y39.6418 
G01 X-76.0594 Y39.6802 
G01 X-76.2410 Y39.7554 
G01 X-76.4045 Y39.8646 
G01 X-76.5436 Y40.0037 
G01 X-76.6528 Y40.1672 
G01 X-76.7280 Y40.3488 
G01 X-76.7664 Y40.5417 
G01 X-76.7664 Y40.7383 
G01 X-76.7280 Y40.9312 
G01 X-76.6528 Y41.1128 
G01 X-76.5436 Y41.2763 
G01 X-76.4045 Y41.4154 
G01 X-76.2410 Y41.5246 
G01 X-76.0594 Y41.5998 
G01 X-75.8665 Y41.6382 
G01 X-73.9935 Y41.6382 
G01 X-73.8006 Y41.5998 
G01 X-73.6190 Y41.5246 
G01 X-73.4555 Y41.4154 
G01 X-73.3164 Y41.2763 
G01 X-73.2072 Y41.1128 
G01 X-73.2039 Y41.1048 
G01 X-72.0581 Y41.1048 
G01 X-72.0556 Y41.1106 
G01 X-72.0106 Y41.1556 
G01 X-71.9518 Y41.1800 
G01 X-70.2882 Y41.1800 
G01 X-70.2294 Y41.1556 
G01 X-70.1844 Y41.1106 
G01 X-70.1819 Y41.1048 
G01 X-55.5015 Y41.1048 
G01 X-55.4418 Y41.1300 
G00 Z2.0000  
G00 X-64.9100 Y32.5818 
G01 Z-0.2200 F200   
G01 X-64.9100 Y30.9182 F300   
G01 X-64.9344 Y30.8594 
G01 X-64.9794 Y30.8144 
G01 X-65.0382 Y30.7900 
G01 X-65.5752 Y30.7900 
G01 X-65.5752 Y24.0688 
G01 X-65.6069 Y23.9506 
G01 X-65.6681 Y23.8446 
G01 X-65.7546 Y23.7581 
G01 X-65.8606 Y23.6969 
G01 X-65.9788 Y23.6652 
G01 X-69.8101 Y23.6652 
G01 X-69.8311 Y23.6616 
G01 X-69.8711 Y23.6652 
G01 X-69.9112 Y23.6652 
G01 X-69.9318 Y23.6707 
G01 X-69.9530 Y23.6727 
G01 X-69.9907 Y23.6865 
G01 X-70.0142 Y23.6928 
G01 X-70.8842 Y23.6928 
G01 X-70.9598 Y23.7241 
G01 X-71.0177 Y23.7820 
G01 X-71.0490 Y23.8576 
G01 X-71.0490 Y24.7624 
G01 X-71.0177 Y24.8380 
G01 X-70.9598 Y24.8959 
G01 X-70.8842 Y24.9272 
G01 X-69.1158 Y24.9272 
G01 X-69.0402 Y24.8959 
G01 X-68.9823 Y24.8380 
G01 X-68.9510 Y24.7624 
G01 X-68.9510 Y24.5948 
G01 X-66.5048 Y24.5948 
G01 X-66.5048 Y30.8585 
G01 X-66.5300 Y30.9182 
G01 X-66.5300 Y32.5818 
G01 X-66.5056 Y32.6406 
G01 X-66.4606 Y32.6856 
G01 X-66.4018 Y32.7100 
G01 X-65.0382 Y32.7100 
G01 X-64.9794 Y32.6856 
G01 X-64.9344 Y32.6406 
G01 X-64.9100 Y32.5818 
G00 Z2.0000  
G00 X-63.0100 Y32.5818 
G01 Z-0.2200 F200   
G01 X-63.0100 Y32.2148 F300   
G01 X-62.7700 Y32.2148 
G01 X-62.7700 Y32.3818 
G01 X-62.7456 Y32.4406 
G01 X-62.7006 Y32.4856 
G01 X-62.6418 Y32.5100 
G01 X-61.3782 Y32.5100 
G01 X-61.3194 Y32.4856 
G01 X-61.2744 Y32.4406 
G01 X-61.2500 Y32.3818 
G01 X-61.2500 Y31.1182 
G01 X-61.2744 Y31.0594 
G01 X-61.3194 Y31.0144 
G01 X-61.3782 Y30.9900 
G01 X-62.6418 Y30.9900 
G01 X-62.7006 Y31.0144 
G01 X-62.7456 Y31.0594 
G01 X-62.7700 Y31.1182 
G01 X-62.7700 Y31.2852 
G01 X-63.0100 Y31.2852 
G01 X-63.0100 Y30.9182 
G01 X-63.0344 Y30.8594 
G01 X-63.0794 Y30.8144 
G01 X-63.1382 Y30.7900 
G01 X-64.5018 Y30.7900 
G01 X-64.5606 Y30.8144 
G01 X-64.6056 Y30.8594 
G01 X-64.6300 Y30.9182 
G01 X-64.6300 Y32.5818 
G01 X-64.6056 Y32.6406 
G01 X-64.5606 Y32.6856 
G01 X-64.5018 Y32.7100 
G01 X-63.1382 Y32.7100 
G01 X-63.0794 Y32.6856 
G01 X-63.0344 Y32.6406 
G01 X-63.0100 Y32.5818 
G00 Z2.0000  
G00 X-82.1118 Y23.3500 
G01 Z-0.2200 F200   
G01 X-81.7448 Y23.3500 F300   
G01 X-81.7448 Y24.9352 
G01 X-83.5297 Y24.9352 
G01 X-83.6118 Y24.8123 
G01 X-83.7403 Y24.6838 
G01 X-83.8913 Y24.5829 
G01 X-84.0591 Y24.5134 
G01 X-84.2372 Y24.4780 
G01 X-85.9428 Y24.4780 
G01 X-86.1209 Y24.5134 
G01 X-86.2887 Y24.5829 
G01 X-86.4397 Y24.6838 
G01 X-86.5682 Y24.8123 
G01 X-86.6691 Y24.9633 
G01 X-86.7386 Y25.1311 
G01 X-86.7740 Y25.3092 
G01 X-86.7740 Y25.4908 
G01 X-86.7386 Y25.6689 
G01 X-86.6691 Y25.8367 
G01 X-86.5682 Y25.9877 
G01 X-86.4397 Y26.1162 
G01 X-86.2887 Y26.2171 
G01 X-86.1209 Y26.2866 
G01 X-85.9428 Y26.3220 
G01 X-84.2372 Y26.3220 
G01 X-84.0591 Y26.2866 
G01 X-83.8913 Y26.2171 
G01 X-83.7403 Y26.1162 
G01 X-83.6118 Y25.9877 
G01 X-83.5297 Y25.8648 
G01 X-81.7448 Y25.8648 
G01 X-81.7448 Y26.0962 
G01 X-81.7131 Y26.2144 
G01 X-81.6519 Y26.3204 
G01 X-81.5654 Y26.4069 
G01 X-79.6604 Y28.3119 
G01 X-79.5544 Y28.3731 
G01 X-79.4362 Y28.4048 
G01 X-79.0303 Y28.4048 
G01 X-78.9482 Y28.5277 
G01 X-78.8197 Y28.6562 
G01 X-78.6687 Y28.7571 
G01 X-78.5009 Y28.8266 
G01 X-78.3228 Y28.8620 
G01 X-76.6172 Y28.8620 
G01 X-76.4391 Y28.8266 
G01 X-76.2713 Y28.7571 
G01 X-76.1203 Y28.6562 
G01 X-75.9918 Y28.5277 
G01 X-75.8909 Y28.3767 
G01 X-75.8214 Y28.2089 
G01 X-75.7860 Y28.0308 
G01 X-75.7860 Y27.8492 
G01 X-75.8214 Y27.6711 
G01 X-75.8909 Y27.5033 
G01 X-75.9918 Y27.3523 
G01 X-76.1203 Y27.2238 
G01 X-76.2713 Y27.1229 
G01 X-76.4391 Y27.0534 
G01 X-76.6172 Y27.0180 
G01 X-78.3228 Y27.0180 
G01 X-78.5009 Y27.0534 
G01 X-78.6687 Y27.1229 
G01 X-78.8197 Y27.2238 
G01 X-78.9482 Y27.3523 
G01 X-79.0303 Y27.4752 
G01 X-79.1825 Y27.4752 
G01 X-80.8152 Y25.8425 
G01 X-80.8152 Y23.3500 
G01 X-80.4482 Y23.3500 
G01 X-80.3894 Y23.3256 
G01 X-80.3444 Y23.2806 
G01 X-80.3200 Y23.2218 
G01 X-80.3200 Y21.8582 
G01 X-80.3444 Y21.7994 
G01 X-80.3894 Y21.7544 
G01 X-80.4482 Y21.7300 
G01 X-82.1118 Y21.7300 
G01 X-82.1706 Y21.7544 
G01 X-82.2156 Y21.7994 
G01 X-82.2400 Y21.8582 
G01 X-82.2400 Y23.2218 
G01 X-82.2156 Y23.2806 
G01 X-82.1706 Y23.3256 
G01 X-82.1118 Y23.3500 
G00 Z2.0000  
G00 X-81.7750 Y17.5832 
G01 Z-0.2200 F200   
G01 X-81.7750 Y18.1396 F300   
G01 X-81.8078 Y18.1964 
G01 X-81.8464 Y18.3404 
G01 X-81.8464 Y18.4896 
G01 X-81.8078 Y18.6336 
G01 X-81.7750 Y18.6904 
G01 X-81.7750 Y19.2468 
G01 X-81.7506 Y19.3056 
G01 X-81.7448 Y19.3115 
G01 X-81.7448 Y19.8300 
G01 X-82.1118 Y19.8300 
G01 X-82.1706 Y19.8544 
G01 X-82.2156 Y19.8994 
G01 X-82.2400 Y19.9582 
G01 X-82.2400 Y21.3218 
G01 X-82.2156 Y21.3806 
G01 X-82.1706 Y21.4256 
G01 X-82.1118 Y21.4500 
G01 X-80.4482 Y21.4500 
G01 X-80.3894 Y21.4256 
G01 X-80.3444 Y21.3806 
G01 X-80.3200 Y21.3218 
G01 X-80.3200 Y19.9582 
G01 X-80.3444 Y19.8994 
G01 X-80.3894 Y19.8544 
G01 X-80.4482 Y19.8300 
G01 X-80.8152 Y19.8300 
G01 X-80.8152 Y19.3750 
G01 X-80.2832 Y19.3750 
G01 X-80.2244 Y19.3506 
G01 X-80.1794 Y19.3056 
G01 X-80.1550 Y19.2468 
G01 X-80.1550 Y18.8798 
G01 X-79.6279 Y18.8798 
G01 X-79.6246 Y18.8878 
G01 X-79.5153 Y19.0513 
G01 X-79.3763 Y19.1904 
G01 X-79.2128 Y19.2996 
G01 X-79.0312 Y19.3748 
G01 X-78.8383 Y19.4132 
G01 X-78.6417 Y19.4132 
G01 X-78.4488 Y19.3748 
G01 X-78.2672 Y19.2996 
G01 X-78.1037 Y19.1904 
G01 X-77.9646 Y19.0513 
G01 X-77.8554 Y18.8878 
G01 X-77.7802 Y18.7062 
G01 X-77.7418 Y18.5133 
G01 X-77.7418 Y18.3167 
G01 X-77.7802 Y18.1238 
G01 X-77.8554 Y17.9422 
G01 X-77.9646 Y17.7787 
G01 X-78.1037 Y17.6396 
G01 X-78.2672 Y17.5304 
G01 X-78.4488 Y17.4552 
G01 X-78.6417 Y17.4168 
G01 X-78.8383 Y17.4168 
G01 X-79.0312 Y17.4552 
G01 X-79.2128 Y17.5304 
G01 X-79.3763 Y17.6396 
G01 X-79.5153 Y17.7787 
G01 X-79.6246 Y17.9422 
G01 X-79.6279 Y17.9502 
G01 X-80.1550 Y17.9502 
G01 X-80.1550 Y17.5832 
G01 X-80.1794 Y17.5244 
G01 X-80.2244 Y17.4794 
G01 X-80.2832 Y17.4550 
G01 X-81.6468 Y17.4550 
G01 X-81.7056 Y17.4794 
G01 X-81.7506 Y17.5244 
G01 X-81.7750 Y17.5832 
G00 Z2.0000  
G00 X-82.1832 Y19.3750 
G01 Z-0.2200 F200   
G01 X-82.1244 Y19.3506 F300   
G01 X-82.0794 Y19.3056 
G01 X-82.0550 Y19.2468 
G01 X-82.0550 Y17.5832 
G01 X-82.0794 Y17.5244 
G01 X-82.0989 Y17.5049 
G01 X-82.0790 Y17.4966 
G01 X-82.0340 Y17.4516 
G01 X-82.0096 Y17.3928 
G01 X-81.9962 Y17.3603 
G01 X-81.8697 Y17.2338 
G01 X-81.7044 Y17.1654 
G01 X-80.2256 Y17.1654 
G01 X-80.0603 Y17.2338 
G01 X-79.9338 Y17.3603 
G01 X-79.9125 Y17.4118 
G01 X-79.9026 Y17.4357 
G01 X-79.8881 Y17.4706 
G01 X-79.8431 Y17.5156 
G01 X-79.8020 Y17.5326 
G01 X-79.7843 Y17.5400 
G01 X-79.7207 Y17.5400 
G01 X-79.6970 Y17.5302 
G01 X-79.6619 Y17.5156 
G01 X-79.6169 Y17.4706 
G01 X-79.4695 Y17.3232 
G01 X-78.9962 Y17.1272 
G01 X-78.4838 Y17.1272 
G01 X-78.0105 Y17.3232 
G01 X-77.6482 Y17.6855 
G01 X-77.4522 Y18.1588 
G01 X-77.4522 Y18.6712 
G01 X-77.6482 Y19.1445 
G01 X-78.0105 Y19.5068 
G01 X-78.4838 Y19.7028 
G01 X-78.9962 Y19.7028 
G01 X-79.4695 Y19.5068 
G01 X-79.6619 Y19.3144 
G01 X-79.6956 Y19.3004 
G01 X-79.7207 Y19.2900 
G01 X-79.7843 Y19.2900 
G01 X-79.8011 Y19.2969 
G01 X-79.8431 Y19.3144 
G01 X-79.8881 Y19.3594 
G01 X-79.9021 Y19.3930 
G01 X-79.9125 Y19.4182 
G01 X-79.9338 Y19.4697 
G01 X-80.0309 Y19.5668 
G01 X-80.0752 Y19.6111 
G01 X-80.0993 Y19.6692 
G01 X-80.0996 Y19.7335 
G01 X-80.0973 Y19.7391 
G01 X-80.0304 Y19.9006 
G01 X-80.0304 Y21.3794 
G01 X-80.0801 Y21.4994 
G01 X-80.0942 Y21.5335 
G01 X-80.1044 Y21.5582 
G01 X-80.1044 Y21.6218 
G01 X-80.0801 Y21.6806 
G01 X-80.0304 Y21.8006 
G01 X-80.0304 Y23.2794 
G01 X-80.0988 Y23.4447 
G01 X-80.2253 Y23.5712 
G01 X-80.3906 Y23.6396 
G01 X-80.3974 Y23.6396 
G01 X-80.4562 Y23.6640 
G01 X-80.5012 Y23.7090 
G01 X-80.5256 Y23.7678 
G01 X-80.5256 Y25.6881 
G01 X-80.5012 Y25.7469 
G01 X-80.4562 Y25.7919 
G01 X-79.2174 Y27.0307 
G01 X-79.1837 Y27.0446 
G01 X-79.1586 Y27.0550 
G01 X-79.0950 Y27.0550 
G01 X-79.0378 Y27.0314 
G01 X-78.9911 Y26.9857 
G01 X-78.9183 Y26.9128 
G01 X-78.7183 Y26.8300 
G01 X-78.7096 Y26.8264 
G01 X-78.6595 Y26.8056 
G01 X-78.6145 Y26.7606 
G01 X-78.6005 Y26.7269 
G01 X-78.5902 Y26.7018 
G01 X-78.5902 Y26.6382 
G01 X-78.6000 Y26.6145 
G01 X-78.6145 Y26.5794 
G01 X-78.6595 Y26.5344 
G01 X-78.9183 Y26.4272 
G01 X-79.2592 Y26.0863 
G01 X-79.4436 Y25.6410 
G01 X-79.4436 Y25.1590 
G01 X-79.2592 Y24.7137 
G01 X-78.9183 Y24.3728 
G01 X-78.7183 Y24.2900 
G01 X-78.6740 Y24.2716 
G01 X-78.6595 Y24.2656 
G01 X-78.6145 Y24.2206 
G01 X-78.5902 Y24.1619 
G01 X-78.5902 Y24.0982 
G01 X-78.6103 Y24.0495 
G01 X-78.6145 Y24.0394 
G01 X-78.6595 Y23.9944 
G01 X-78.9183 Y23.8872 
G01 X-79.2592 Y23.5463 
G01 X-79.4436 Y23.1010 
G01 X-79.4436 Y22.6190 
G01 X-79.2592 Y22.1737 
G01 X-78.9183 Y21.8328 
G01 X-78.4730 Y21.6484 
G01 X-77.3597 Y21.6484 
G01 X-77.3009 Y21.6240 
G01 X-77.2559 Y21.5790 
G01 X-76.2422 Y20.5653 
G01 X-76.2178 Y20.5065 
G01 X-76.2178 Y20.0638 
G01 X-76.0218 Y19.5905 
G01 X-75.6595 Y19.2282 
G01 X-75.1862 Y19.0322 
G01 X-74.6738 Y19.0322 
G01 X-74.2005 Y19.2282 
G01 X-73.8382 Y19.5905 
G01 X-73.6422 Y20.0638 
G01 X-73.6422 Y20.5762 
G01 X-73.6461 Y20.5856 
G01 X-73.6610 Y20.6217 
G01 X-73.6610 Y20.6853 
G01 X-73.6512 Y20.7090 
G01 X-73.6367 Y20.7442 
G01 X-73.5917 Y20.7892 
G01 X-73.5678 Y20.7990 
G01 X-73.5329 Y20.8135 
G01 X-73.4692 Y20.8135 
G01 X-73.4456 Y20.8037 
G01 X-73.4104 Y20.7892 
G01 X-73.3654 Y20.7442 
G01 X-73.1195 Y20.4982 
G01 X-72.6462 Y20.3022 
G01 X-72.1338 Y20.3022 
G01 X-71.6605 Y20.4982 
G01 X-71.5763 Y20.5825 
G01 X-71.5339 Y20.6248 
G01 X-71.5312 Y20.6275 
G01 X-71.4975 Y20.6415 
G01 X-71.4724 Y20.6519 
G01 X-71.4088 Y20.6519 
G01 X-71.3748 Y20.6378 
G01 X-71.3500 Y20.6275 
G01 X-71.3050 Y20.5825 
G01 X-71.2910 Y20.5487 
G01 X-71.2806 Y20.5237 
G01 X-71.2806 Y20.4600 
G01 X-71.2997 Y20.4139 
G01 X-71.3050 Y20.4012 
G01 X-71.3386 Y20.3200 
G01 X-71.3386 Y19.3000 
G01 X-71.2767 Y19.1506 
G01 X-71.2718 Y19.1387 
G01 X-71.2524 Y19.0918 
G01 X-71.2524 Y19.0282 
G01 X-71.2713 Y18.9826 
G01 X-71.2767 Y18.9694 
G01 X-71.3386 Y18.8200 
G01 X-71.3386 Y17.8000 
G01 X-71.2767 Y17.6506 
G01 X-71.2718 Y17.6387 
G01 X-71.2524 Y17.5918 
G01 X-71.2524 Y17.5282 
G01 X-71.2713 Y17.4826 
G01 X-71.2767 Y17.4694 
G01 X-71.3386 Y17.3200 
G01 X-71.3386 Y16.3000 
G01 X-71.2767 Y16.1506 
G01 X-71.2718 Y16.1387 
G01 X-71.2524 Y16.0918 
G01 X-71.2524 Y16.0282 
G01 X-71.2713 Y15.9826 
G01 X-71.2767 Y15.9694 
G01 X-71.3386 Y15.8200 
G01 X-71.3386 Y14.8000 
G01 X-71.2767 Y14.6506 
G01 X-71.2620 Y14.6150 
G01 X-71.2524 Y14.5918 
G01 X-71.2524 Y14.5282 
G01 X-71.3386 Y14.3200 
G01 X-71.3386 Y13.3000 
G01 X-71.2524 Y13.0918 
G01 X-71.2524 Y13.0282 
G01 X-71.2767 Y12.9694 
G01 X-71.3386 Y12.8200 
G01 X-71.3386 Y11.8000 
G01 X-71.2768 Y11.6506 
G01 X-71.2528 Y11.5928 
G01 X-71.2524 Y11.5282 
G01 X-71.2541 Y11.5240 
G01 X-71.3386 Y11.3200 
G01 X-71.3386 Y10.3000 
G01 X-71.2768 Y10.1506 
G01 X-71.2528 Y10.0928 
G01 X-71.2524 Y10.0282 
G01 X-71.2541 Y10.0240 
G01 X-71.3386 Y9.8200  
G01 X-71.3386 Y8.8328  
G01 X-71.3630 Y8.7740  
G01 X-71.4080 Y8.7290  
G01 X-71.4668 Y8.7046  
G01 X-75.0194 Y8.7046  
G01 X-75.1847 Y8.6362  
G01 X-75.3112 Y8.5097  
G01 X-75.3796 Y8.3444  
G01 X-75.3796 Y-0.0318 
G01 X-75.4040 Y-0.0906 
G01 X-75.4490 Y-0.1356 
G01 X-75.5078 Y-0.1600 
G01 X-100.3618 Y-0.1600 
G01 X-100.4206 Y-0.1356 
G01 X-100.4656 Y-0.0906 
G01 X-100.4900 Y-0.0318 
G01 X-100.4900 Y54.6418 
G01 X-100.4656 Y54.7006 
G01 X-100.4206 Y54.7456 
G01 X-100.3618 Y54.7700 
G01 X0.0318  Y54.7700 
G01 X0.0906  Y54.7456 
G01 X0.1356  Y54.7006 
G01 X0.1600  Y54.6418 
G01 X0.1600  Y-0.0318 
G01 X0.1356  Y-0.0906 
G01 X0.0906  Y-0.1356 
G01 X0.0318  Y-0.1600 
G01 X-51.4922 Y-0.1600 
G01 X-51.5510 Y-0.1356 
G01 X-51.5960 Y-0.0906 
G01 X-51.6204 Y-0.0318 
G01 X-51.6204 Y8.3444  
G01 X-51.6888 Y8.5097  
G01 X-51.6991 Y8.5199  
G01 X-51.7101 Y8.5464  
G01 X-51.7234 Y8.5787  
G01 X-51.7235 Y8.6104  
G01 X-51.7235 Y8.6424  
G01 X-51.7142 Y8.6648  
G01 X-51.6991 Y8.7012  
G01 X-51.6812 Y8.7191  
G01 X-51.6541 Y8.7462  
G01 X-51.6276 Y8.7572  
G01 X-51.5953 Y8.7706  
G01 X-51.5637 Y8.7706  
G01 X-51.5317 Y8.7706  
G01 X-43.0299 Y8.7706  
G01 X-42.8562 Y8.8425  
G01 X-42.7926 Y8.8425  
G01 X-42.7689 Y8.8327  
G01 X-42.7338 Y8.8182  
G01 X-42.6888 Y8.7732  
G01 X-42.6644 Y8.7144  
G01 X-42.6644 Y7.9669  
G01 X-42.6888 Y7.9081  
G01 X-42.7338 Y7.8631  
G01 X-43.4681 Y7.1288  
G01 X-43.5269 Y7.1044  
G01 X-47.7751 Y7.1044  
G01 X-48.0523 Y6.9896  
G01 X-48.2646 Y6.7773  
G01 X-48.3096 Y6.7323  
G01 X-49.5346 Y5.5073  
G01 X-49.6494 Y5.2301  
G01 X-49.6494 Y2.3899  
G01 X-49.5346 Y2.1127  
G01 X-49.3223 Y1.9004  
G01 X-49.2773 Y1.8554  
G01 X-48.2646 Y0.8427  
G01 X-48.0523 Y0.6304  
G01 X-47.7751 Y0.5156  
G01 X-35.4099 Y0.5156  
G01 X-35.1326 Y0.6304  
G01 X-34.8754 Y0.8877  
G01 X-33.6504 Y2.1126  
G01 X-33.5750 Y2.2948  
G01 X-33.5300 Y2.3398  
G01 X-33.3490 Y2.5208  
G01 X-33.1800 Y2.9288  
G01 X-33.1800 Y4.6912  
G01 X-33.3490 Y5.0992  
G01 X-33.6612 Y5.4114  
G01 X-34.0692 Y5.5804  
G01 X-34.5108 Y5.5804  
G01 X-34.9188 Y5.4114  
G01 X-35.2310 Y5.0992  
G01 X-35.4244 Y4.6324  
G01 X-35.4472 Y4.6096  
G01 X-35.4694 Y4.5874  
G01 X-35.5105 Y4.5704  
G01 X-35.5282 Y4.5631  
G01 X-35.5918 Y4.5631  
G01 X-35.6506 Y4.5874  
G01 X-35.6735 Y4.6103  
G01 X-35.6956 Y4.6324  
G01 X-35.8890 Y5.0992  
G01 X-36.0707 Y5.2809  
G01 X-36.1150 Y5.3252  
G01 X-36.1904 Y5.5073  
G01 X-36.4380 Y5.7549  
G01 X-38.6519 Y7.9688  
G01 X-38.6615 Y7.9784  
G01 X-38.6969 Y8.0138  
G01 X-38.7212 Y8.0726  
G01 X-38.7212 Y8.1363  
G01 X-38.6969 Y8.1951  
G01 X-38.6519 Y8.2401  
G01 X-38.5931 Y8.2644  
G01 X-38.5294 Y8.2644  
G01 X-38.3410 Y8.1864  
G01 X-37.8590 Y8.1864  
G01 X-37.4137 Y8.3708  
G01 X-37.0728 Y8.7117  
G01 X-36.9900 Y8.9117  
G01 X-36.9661 Y8.9694  
G01 X-36.9206 Y9.0155  
G01 X-36.8630 Y9.0393  
G01 X-36.7982 Y9.0398  
G01 X-36.7410 Y9.0162  
G01 X-36.6944 Y8.9705  
G01 X-36.5872 Y8.7117  
G01 X-36.2463 Y8.3708  
G01 X-35.8010 Y8.1864  
G01 X-35.3190 Y8.1864  
G01 X-34.8737 Y8.3708  
G01 X-34.5328 Y8.7117  
G01 X-34.4256 Y8.9705  
G01 X-34.3806 Y9.0155  
G01 X-34.3469 Y9.0295  
G01 X-34.3218 Y9.0398  
G01 X-34.2582 Y9.0398  
G01 X-34.2345 Y9.0300  
G01 X-34.1994 Y9.0155  
G01 X-34.1544 Y8.9705  
G01 X-34.1344 Y8.9223  
G01 X-34.1300 Y8.9117  
G01 X-34.0472 Y8.7117  
G01 X-33.7988 Y8.4633  
G01 X-33.7744 Y8.4045  
G01 X-33.7744 Y7.4699  
G01 X-33.6596 Y7.1927  
G01 X-32.1773 Y5.7104  
G01 X-31.9001 Y5.5956  
G01 X-30.8269 Y5.5956  
G01 X-30.7681 Y5.5712  
G01 X-30.7231 Y5.5262  
G01 X-30.2466 Y5.0497  
G01 X-30.2222 Y4.9909  
G01 X-30.2222 Y4.9272  
G01 X-30.2235 Y4.9241  
G01 X-30.3200 Y4.6912  
G01 X-30.3200 Y2.9288  
G01 X-30.1510 Y2.5208  
G01 X-29.8388 Y2.2086  
G01 X-29.4308 Y2.0396  
G01 X-28.9892 Y2.0396  
G01 X-28.5812 Y2.2086  
G01 X-28.2690 Y2.5208  
G01 X-28.0762 Y2.9862  
G01 X-28.0312 Y3.0312  
G01 X-27.9724 Y3.0556  
G01 X-24.3718 Y3.0556  
G01 X-24.3663 Y3.0574  
G01 X-24.3402 Y3.0556  
G01 X-24.3140 Y3.0556  
G01 X-24.3086 Y3.0533  
G01 X-24.3028 Y3.0529  
G01 X-24.2794 Y3.0412  
G01 X-24.2552 Y3.0312  
G01 X-24.2511 Y3.0271  
G01 X-23.3352 Y2.5691  
G01 X-23.3110 Y2.5591  
G01 X-23.3069 Y2.5550  
G01 X-23.3016 Y2.5524  
G01 X-23.2868 Y2.5352  
G01 X-23.2027 Y2.5004  
G01 X-23.1968 Y2.5000  
G01 X-23.1735 Y2.4883  
G01 X-23.1493 Y2.4783  
G01 X-23.1452 Y2.4741  
G01 X-23.0637 Y2.4334  
G01 X-23.0410 Y2.4334  
G01 X-23.0356 Y2.4312  
G01 X-23.0297 Y2.4307  
G01 X-23.0094 Y2.4206  
G01 X-22.9184 Y2.4206  
G01 X-22.9129 Y2.4224  
G01 X-22.8868 Y2.4206  
G01 X-22.8606 Y2.4206  
G01 X-22.8552 Y2.4183  
G01 X-22.7644 Y2.4119  
G01 X-22.7434 Y2.4206  
G01 X-22.7376 Y2.4206  
G01 X-22.7320 Y2.4224  
G01 X-22.7059 Y2.4206  
G01 X-20.1699 Y2.4206  
G01 X-19.8926 Y2.5354  
G01 X-18.6227 Y3.8054  
G01 X-18.4104 Y4.0177  
G01 X-18.2956 Y4.2949  
G01 X-18.2956 Y19.4374 
G01 X-18.2712 Y19.4962 
G01 X-18.2262 Y19.5412 
G01 X-18.1674 Y19.5656 
G01 X-10.4002 Y19.5656 
G01 X-10.3414 Y19.5412 
G01 X-10.1792 Y19.3790 
G01 X-9.7124 Y19.1856 
G01 X-9.6896 Y19.1628 
G01 X-9.6674 Y19.1406 
G01 X-9.6504 Y19.0995 
G01 X-9.6431 Y19.0818 
G01 X-9.6431 Y19.0182 
G01 X-9.6674 Y18.9594 
G01 X-9.6903 Y18.9365 
G01 X-9.7124 Y18.9144 
G01 X-10.1792 Y18.7210 
G01 X-10.4914 Y18.4088 
G01 X-10.6604 Y18.0008 
G01 X-10.6604 Y17.5592 
G01 X-10.4914 Y17.1512 
G01 X-10.1792 Y16.8390 
G01 X-9.7124 Y16.6456 
G01 X-9.6896 Y16.6228 
G01 X-9.6674 Y16.6006 
G01 X-9.6504 Y16.5595 
G01 X-9.6431 Y16.5418 
G01 X-9.6431 Y16.4782 
G01 X-9.6674 Y16.4194 
G01 X-9.6903 Y16.3965 
G01 X-9.7124 Y16.3744 
G01 X-10.1792 Y16.1810 
G01 X-10.4914 Y15.8688 
G01 X-10.6604 Y15.4608 
G01 X-10.6604 Y15.0192 
G01 X-10.4914 Y14.6112 
G01 X-10.1792 Y14.2990 
G01 X-9.7124 Y14.1056 
G01 X-9.6896 Y14.0828 
G01 X-9.6674 Y14.0606 
G01 X-9.6504 Y14.0195 
G01 X-9.6431 Y14.0018 
G01 X-9.6431 Y13.9382 
G01 X-9.6674 Y13.8794 
G01 X-9.6903 Y13.8565 
G01 X-9.7124 Y13.8344 
G01 X-10.1792 Y13.6410 
G01 X-10.4914 Y13.3288 
G01 X-10.6604 Y12.9208 
G01 X-10.6604 Y12.4792 
G01 X-10.4914 Y12.0712 
G01 X-10.1792 Y11.7590 
G01 X-9.7124 Y11.5656 
G01 X-9.6896 Y11.5428 
G01 X-9.6674 Y11.5206 
G01 X-9.6504 Y11.4795 
G01 X-9.6431 Y11.4618 
G01 X-9.6431 Y11.3982 
G01 X-9.6674 Y11.3394 
G01 X-9.6903 Y11.3165 
G01 X-9.7124 Y11.2944 
G01 X-10.1792 Y11.1010 
G01 X-10.4914 Y10.7888 
G01 X-10.6604 Y10.3808 
G01 X-10.6604 Y9.9392  
G01 X-10.4914 Y9.5312  
G01 X-10.1792 Y9.2190  
G01 X-9.7712 Y9.0500  
G01 X-8.0088 Y9.0500  
G01 X-7.9475 Y9.0754  
G01 X-6.3896 Y9.0754  
G01 X-6.0830 Y8.9484  
G01 X-4.0770 Y8.9484  
G01 X-3.6317 Y9.1328  
G01 X-3.2908 Y9.4737  
G01 X-3.1064 Y9.9190  
G01 X-3.1064 Y10.4010 
G01 X-3.2908 Y10.8463 
G01 X-3.6317 Y11.1872 
G01 X-3.8317 Y11.2700 
G01 X-3.8404 Y11.2736 
G01 X-3.8905 Y11.2944 
G01 X-3.9355 Y11.3394 
G01 X-3.9495 Y11.3731 
G01 X-3.9598 Y11.3982 
G01 X-3.9598 Y11.4618 
G01 X-3.9500 Y11.4855 
G01 X-3.9355 Y11.5206 
G01 X-3.8905 Y11.5656 
G01 X-3.6317 Y11.6728 
G01 X-3.2908 Y12.0137 
G01 X-3.1064 Y12.4590 
G01 X-3.1064 Y12.9410 
G01 X-3.2908 Y13.3863 
G01 X-3.6317 Y13.7272 
G01 X-3.8317 Y13.8100 
G01 X-3.8404 Y13.8136 
G01 X-3.8905 Y13.8344 
G01 X-3.9355 Y13.8794 
G01 X-3.9495 Y13.9131 
G01 X-3.9598 Y13.9382 
G01 X-3.9598 Y14.0018 
G01 X-3.9500 Y14.0255 
G01 X-3.9355 Y14.0606 
G01 X-3.8905 Y14.1056 
G01 X-3.6317 Y14.2128 
G01 X-3.2908 Y14.5537 
G01 X-3.1064 Y14.9990 
G01 X-3.1064 Y15.4810 
G01 X-3.2908 Y15.9263 
G01 X-3.6317 Y16.2672 
G01 X-3.8317 Y16.3500 
G01 X-3.8404 Y16.3536 
G01 X-3.8905 Y16.3744 
G01 X-3.9355 Y16.4194 
G01 X-3.9495 Y16.4531 
G01 X-3.9598 Y16.4782 
G01 X-3.9598 Y16.5418 
G01 X-3.9500 Y16.5655 
G01 X-3.9355 Y16.6006 
G01 X-3.8905 Y16.6456 
G01 X-3.6317 Y16.7528 
G01 X-3.2908 Y17.0937 
G01 X-3.1064 Y17.5390 
G01 X-3.1064 Y18.0210 
G01 X-3.2908 Y18.4663 
G01 X-3.6317 Y18.8072 
G01 X-4.0770 Y18.9916 
G01 X-6.0830 Y18.9916 
G01 X-6.3896 Y18.8646 
G01 X-7.9475 Y18.8646 
G01 X-8.0088 Y18.8900 
G01 X-8.0154 Y18.8928 
G01 X-8.0676 Y18.9144 
G01 X-8.0904 Y18.9372 
G01 X-8.1126 Y18.9594 
G01 X-8.1366 Y19.0175 
G01 X-8.1369 Y19.0818 
G01 X-8.1300 Y19.0986 
G01 X-8.1126 Y19.1406 
G01 X-8.0897 Y19.1635 
G01 X-8.0676 Y19.1856 
G01 X-7.6008 Y19.3790 
G01 X-7.2886 Y19.6912 
G01 X-7.1196 Y20.0992 
G01 X-7.1196 Y20.5408 
G01 X-7.2886 Y20.9488 
G01 X-7.6008 Y21.2610 
G01 X-8.0088 Y21.4300 
G01 X-9.7712 Y21.4300 
G01 X-10.1792 Y21.2610 
G01 X-10.3414 Y21.0988 
G01 X-10.4002 Y21.0744 
G01 X-18.1674 Y21.0744 
G01 X-18.2262 Y21.0988 
G01 X-18.2712 Y21.1438 
G01 X-18.2956 Y21.2026 
G01 X-18.2956 Y41.0274 
G01 X-18.2712 Y41.0862 
G01 X-18.2262 Y41.1312 
G01 X-18.1674 Y41.1556 
G01 X-10.4002 Y41.1556 
G01 X-10.3431 Y41.1319 
G01 X-10.2964 Y41.0862 
G01 X-10.1792 Y40.9690 
G01 X-9.7124 Y40.7756 
G01 X-9.6896 Y40.7528 
G01 X-9.6674 Y40.7306 
G01 X-9.6504 Y40.6895 
G01 X-9.6431 Y40.6718 
G01 X-9.6431 Y40.6082 
G01 X-9.6674 Y40.5494 
G01 X-9.6903 Y40.5265 
G01 X-9.7124 Y40.5044 
G01 X-10.1792 Y40.3110 
G01 X-10.4914 Y39.9988 
G01 X-10.6604 Y39.5908 
G01 X-10.6604 Y39.1492 
G01 X-10.4914 Y38.7412 
G01 X-10.1792 Y38.4290 
G01 X-9.7124 Y38.2356 
G01 X-9.6896 Y38.2128 
G01 X-9.6674 Y38.1906 
G01 X-9.6504 Y38.1495 
G01 X-9.6431 Y38.1318 
G01 X-9.6431 Y38.0682 
G01 X-9.6674 Y38.0094 
G01 X-9.6903 Y37.9865 
G01 X-9.7124 Y37.9644 
G01 X-10.1792 Y37.7710 
G01 X-10.4914 Y37.4588 
G01 X-10.6604 Y37.0508 
G01 X-10.6604 Y36.6092 
G01 X-10.4914 Y36.2012 
G01 X-10.1792 Y35.8890 
G01 X-9.7124 Y35.6956 
G01 X-9.6896 Y35.6728 
G01 X-9.6674 Y35.6506 
G01 X-9.6504 Y35.6095 
G01 X-9.6431 Y35.5918 
G01 X-9.6431 Y35.5282 
G01 X-9.6674 Y35.4694 
G01 X-9.6903 Y35.4465 
G01 X-9.7124 Y35.4244 
G01 X-10.1792 Y35.2310 
G01 X-10.4914 Y34.9188 
G01 X-10.6604 Y34.5108 
G01 X-10.6604 Y34.0692 
G01 X-10.4914 Y33.6612 
G01 X-10.1792 Y33.3490 
G01 X-9.7124 Y33.1556 
G01 X-9.6896 Y33.1328 
G01 X-9.6674 Y33.1106 
G01 X-9.6504 Y33.0695 
G01 X-9.6431 Y33.0518 
G01 X-9.6431 Y32.9882 
G01 X-9.6674 Y32.9294 
G01 X-9.6903 Y32.9065 
G01 X-9.7124 Y32.8844 
G01 X-10.1792 Y32.6910 
G01 X-10.4914 Y32.3788 
G01 X-10.6604 Y31.9708 
G01 X-10.6604 Y31.5292 
G01 X-10.4914 Y31.1212 
G01 X-10.1792 Y30.8090 
G01 X-9.7712 Y30.6400 
G01 X-8.0088 Y30.6400 
G01 X-7.9475 Y30.6654 
G01 X-6.3896 Y30.6654 
G01 X-6.0830 Y30.5384 
G01 X-4.0770 Y30.5384 
G01 X-3.6317 Y30.7228 
G01 X-3.2908 Y31.0637 
G01 X-3.1064 Y31.5090 
G01 X-3.1064 Y31.9910 
G01 X-3.2908 Y32.4363 
G01 X-3.6317 Y32.7772 
G01 X-3.8317 Y32.8600 
G01 X-3.8404 Y32.8636 
G01 X-3.8905 Y32.8844 
G01 X-3.9355 Y32.9294 
G01 X-3.9495 Y32.9631 
G01 X-3.9598 Y32.9882 
G01 X-3.9598 Y33.0518 
G01 X-3.9500 Y33.0755 
G01 X-3.9355 Y33.1106 
G01 X-3.8905 Y33.1556 
G01 X-3.6317 Y33.2628 
G01 X-3.2908 Y33.6037 
G01 X-3.1064 Y34.0490 
G01 X-3.1064 Y34.5310 
G01 X-3.2908 Y34.9763 
G01 X-3.6317 Y35.3172 
G01 X-3.8317 Y35.4000 
G01 X-3.8404 Y35.4036 
G01 X-3.8905 Y35.4244 
G01 X-3.9355 Y35.4694 
G01 X-3.9495 Y35.5031 
G01 X-3.9598 Y35.5282 
G01 X-3.9598 Y35.5918 
G01 X-3.9500 Y35.6155 
G01 X-3.9355 Y35.6506 
G01 X-3.8905 Y35.6956 
G01 X-3.6317 Y35.8028 
G01 X-3.2908 Y36.1437 
G01 X-3.1064 Y36.5890 
G01 X-3.1064 Y37.0710 
G01 X-3.2908 Y37.5163 
G01 X-3.6317 Y37.8572 
G01 X-3.8905 Y37.9644 
G01 X-3.9355 Y38.0094 
G01 X-3.9598 Y38.0682 
G01 X-3.9598 Y38.1318 
G01 X-3.9355 Y38.1906 
G01 X-3.8905 Y38.2356 
G01 X-3.8317 Y38.2600 
G01 X-3.6317 Y38.3428 
G01 X-3.2908 Y38.6837 
G01 X-3.1064 Y39.1290 
G01 X-3.1064 Y39.6110 
G01 X-3.2908 Y40.0563 
G01 X-3.6317 Y40.3972 
G01 X-4.0770 Y40.5816 
G01 X-6.0830 Y40.5816 
G01 X-6.3896 Y40.4546 
G01 X-7.9475 Y40.4546 
G01 X-8.0088 Y40.4800 
G01 X-8.0648 Y40.5032 
G01 X-8.0676 Y40.5044 
G01 X-8.1126 Y40.5494 
G01 X-8.1362 Y40.6065 
G01 X-8.1369 Y40.6718 
G01 X-8.1126 Y40.7306 
G01 X-8.0676 Y40.7756 
G01 X-7.6008 Y40.9690 
G01 X-7.2886 Y41.2812 
G01 X-7.1196 Y41.6892 
G01 X-7.1196 Y42.1308 
G01 X-7.2886 Y42.5388 
G01 X-7.6008 Y42.8510 
G01 X-8.0088 Y43.0200 
G01 X-9.7712 Y43.0200 
G01 X-10.1792 Y42.8510 
G01 X-10.2964 Y42.7338 
G01 X-10.3382 Y42.6920 
G01 X-10.3414 Y42.6888 
G01 X-10.4002 Y42.6644 
G01 X-19.2001 Y42.6644 
G01 X-19.4773 Y42.5496 
G01 X-19.6509 Y42.3760 
G01 X-19.6952 Y42.3317 
G01 X-19.7533 Y42.3077 
G01 X-19.8176 Y42.3074 
G01 X-19.8764 Y42.3317 
G01 X-19.8993 Y42.3546 
G01 X-19.9215 Y42.3767 
G01 X-19.9886 Y42.5388 
G01 X-20.3008 Y42.8510 
G01 X-20.7676 Y43.0444 
G01 X-20.8126 Y43.0894 
G01 X-20.8369 Y43.1482 
G01 X-20.8369 Y43.2118 
G01 X-20.8126 Y43.2706 
G01 X-20.7676 Y43.3156 
G01 X-20.7088 Y43.3400 
G01 X-20.3008 Y43.5090 
G01 X-19.9886 Y43.8212 
G01 X-19.8196 Y44.2292 
G01 X-19.8196 Y44.6708 
G01 X-19.9886 Y45.0788 
G01 X-20.3008 Y45.3910 
G01 X-20.7088 Y45.5600 
G01 X-22.4712 Y45.5600 
G01 X-22.8792 Y45.3910 
G01 X-23.1052 Y45.1650 
G01 X-23.1640 Y45.1407 
G01 X-23.2873 Y45.0896 
G01 X-25.6881 Y42.6888 
G01 X-25.7469 Y42.6644 
G01 X-30.2398 Y42.6644 
G01 X-30.2969 Y42.6881 
G01 X-30.3436 Y42.7338 
G01 X-30.4608 Y42.8510 
G01 X-30.8688 Y43.0200 
G01 X-32.6312 Y43.0200 
G01 X-33.0392 Y42.8510 
G01 X-33.3514 Y42.5388 
G01 X-33.5204 Y42.1308 
G01 X-33.5204 Y41.6892 
G01 X-33.3514 Y41.2812 
G01 X-33.0392 Y40.9690 
G01 X-32.5724 Y40.7756 
G01 X-32.5496 Y40.7528 
G01 X-32.5274 Y40.7306 
G01 X-32.5104 Y40.6895 
G01 X-32.5031 Y40.6718 
G01 X-32.5031 Y40.6082 
G01 X-32.5274 Y40.5494 
G01 X-32.5503 Y40.5265 
G01 X-32.5724 Y40.5044 
G01 X-33.0392 Y40.3110 
G01 X-33.3514 Y39.9988 
G01 X-33.5204 Y39.5908 
G01 X-33.5204 Y39.1492 
G01 X-33.3514 Y38.7412 
G01 X-33.0392 Y38.4290 
G01 X-32.5724 Y38.2356 
G01 X-32.5496 Y38.2128 
G01 X-32.5274 Y38.1906 
G01 X-32.5104 Y38.1495 
G01 X-32.5031 Y38.1318 
G01 X-32.5031 Y38.0682 
G01 X-32.5274 Y38.0094 
G01 X-32.5503 Y37.9865 
G01 X-32.5724 Y37.9644 
G01 X-33.0392 Y37.7710 
G01 X-33.3514 Y37.4588 
G01 X-33.5204 Y37.0508 
G01 X-33.5204 Y36.6092 
G01 X-33.3514 Y36.2012 
G01 X-33.0392 Y35.8890 
G01 X-32.5724 Y35.6956 
G01 X-32.5496 Y35.6728 
G01 X-32.5274 Y35.6506 
G01 X-32.5104 Y35.6095 
G01 X-32.5031 Y35.5918 
G01 X-32.5031 Y35.5282 
G01 X-32.5274 Y35.4694 
G01 X-32.5503 Y35.4465 
G01 X-32.5724 Y35.4244 
G01 X-33.0392 Y35.2310 
G01 X-33.3514 Y34.9188 
G01 X-33.5204 Y34.5108 
G01 X-33.5204 Y34.0692 
G01 X-33.3514 Y33.6612 
G01 X-33.0392 Y33.3490 
G01 X-32.6312 Y33.1800 
G01 X-30.8688 Y33.1800 
G01 X-30.4608 Y33.3490 
G01 X-30.3436 Y33.4662 
G01 X-30.3018 Y33.5080 
G01 X-30.2986 Y33.5112 
G01 X-30.2398 Y33.5356 
G01 X-25.2313 Y33.5356 
G01 X-25.1725 Y33.5112 
G01 X-25.1275 Y33.4662 
G01 X-24.8595 Y33.1982 
G01 X-24.3862 Y33.0022 
G01 X-23.8738 Y33.0022 
G01 X-23.4005 Y33.1982 
G01 X-23.2001 Y33.3986 
G01 X-23.1551 Y33.4436 
G01 X-23.0964 Y33.4680 
G01 X-23.0326 Y33.4680 
G01 X-22.9840 Y33.4479 
G01 X-22.9738 Y33.4436 
G01 X-22.8792 Y33.3490 
G01 X-22.4138 Y33.1562 
G01 X-22.3688 Y33.1112 
G01 X-22.3444 Y33.0524 
G01 X-22.3444 Y32.9876 
G01 X-22.3688 Y32.9288 
G01 X-22.4138 Y32.8838 
G01 X-22.8792 Y32.6910 
G01 X-23.1914 Y32.3788 
G01 X-23.3604 Y31.9708 
G01 X-23.3604 Y31.5292 
G01 X-23.1914 Y31.1212 
G01 X-22.8792 Y30.8090 
G01 X-22.4138 Y30.6162 
G01 X-22.3688 Y30.5712 
G01 X-22.3444 Y30.5124 
G01 X-22.3444 Y30.4476 
G01 X-22.3688 Y30.3888 
G01 X-22.4138 Y30.3438 
G01 X-22.8792 Y30.1510 
G01 X-23.0414 Y29.9888 
G01 X-23.1002 Y29.9644 
G01 X-30.2398 Y29.9644 
G01 X-30.2986 Y29.9888 
G01 X-30.3436 Y30.0338 
G01 X-30.4608 Y30.1510 
G01 X-30.8688 Y30.3200 
G01 X-32.6312 Y30.3200 
G01 X-33.0392 Y30.1510 
G01 X-33.3514 Y29.8388 
G01 X-33.5204 Y29.4308 
G01 X-33.5204 Y28.9892 
G01 X-33.3514 Y28.5812 
G01 X-33.0392 Y28.2690 
G01 X-32.5724 Y28.0756 
G01 X-32.5496 Y28.0528 
G01 X-32.5274 Y28.0306 
G01 X-32.5104 Y27.9895 
G01 X-32.5031 Y27.9718 
G01 X-32.5031 Y27.9082 
G01 X-32.5274 Y27.8494 
G01 X-32.5503 Y27.8265 
G01 X-32.5724 Y27.8044 
G01 X-33.0392 Y27.6110 
G01 X-33.2209 Y27.4293 
G01 X-33.2652 Y27.3850 
G01 X-33.4473 Y27.3096 
G01 X-33.7046 Y27.0523 
G01 X-37.4696 Y23.2873 
G01 X-37.5844 Y23.0101 
G01 X-37.5844 Y19.3969 
G01 X-37.6088 Y19.3381 
G01 X-37.6416 Y19.3053 
G01 X-39.6915 Y17.2554 
G01 X-39.7038 Y17.2431 
G01 X-39.7365 Y17.2104 
G01 X-39.7954 Y17.1860 
G01 X-39.8590 Y17.1860 
G01 X-39.9178 Y17.2104 
G01 X-39.9628 Y17.2554 
G01 X-39.9872 Y17.3142 
G01 X-39.9872 Y17.4012 
G01 X-40.1832 Y17.8745 
G01 X-40.5455 Y18.2368 
G01 X-41.0188 Y18.4328 
G01 X-41.0274 Y18.4328 
G01 X-41.0862 Y18.4572 
G01 X-41.1312 Y18.5022 
G01 X-41.1556 Y18.5610 
G01 X-41.1556 Y38.2501 
G01 X-41.2704 Y38.5273 
G01 X-41.5277 Y38.7846 
G01 X-45.2927 Y42.5496 
G01 X-45.4748 Y42.6250 
G01 X-45.5198 Y42.6700 
G01 X-45.7008 Y42.8510 
G01 X-46.1088 Y43.0200 
G01 X-47.8712 Y43.0200 
G01 X-48.2792 Y42.8510 
G01 X-48.5914 Y42.5388 
G01 X-48.7604 Y42.1308 
G01 X-48.7604 Y41.6892 
G01 X-48.5914 Y41.2812 
G01 X-48.2792 Y40.9690 
G01 X-47.8712 Y40.8000 
G01 X-47.8147 Y40.7766 
G01 X-47.8117 Y40.7749 
G01 X-47.7674 Y40.7306 
G01 X-47.7433 Y40.6725 
G01 X-47.7431 Y40.6082 
G01 X-47.7674 Y40.5494 
G01 X-47.8124 Y40.5044 
G01 X-48.2792 Y40.3110 
G01 X-48.5914 Y39.9988 
G01 X-48.7604 Y39.5908 
G01 X-48.7604 Y39.1492 
G01 X-48.5914 Y38.7412 
G01 X-48.2792 Y38.4290 
G01 X-47.8712 Y38.2600 
G01 X-47.8147 Y38.2366 
G01 X-47.8117 Y38.2349 
G01 X-47.7674 Y38.1906 
G01 X-47.7433 Y38.1325 
G01 X-47.7431 Y38.0682 
G01 X-47.7674 Y38.0094 
G01 X-47.8124 Y37.9644 
G01 X-48.2792 Y37.7710 
G01 X-48.5914 Y37.4588 
G01 X-48.7604 Y37.0508 
G01 X-48.7604 Y36.6092 
G01 X-48.5914 Y36.2012 
G01 X-48.2792 Y35.8890 
G01 X-47.8712 Y35.7200 
G01 X-47.8134 Y35.6960 
G01 X-47.7674 Y35.6506 
G01 X-47.7433 Y35.5925 
G01 X-47.7431 Y35.5282 
G01 X-47.7667 Y35.4710 
G01 X-47.8124 Y35.4244 
G01 X-48.0484 Y35.3266 
G01 X-48.1054 Y35.3030 
G01 X-48.1709 Y35.3022 
G01 X-48.2297 Y35.3266 
G01 X-48.2747 Y35.3716 
G01 X-48.4677 Y35.5646 
G01 X-48.7449 Y35.6794 
G01 X-52.8551 Y35.6794 
G01 X-53.1323 Y35.5646 
G01 X-53.3446 Y35.3523 
G01 X-53.6029 Y35.0940 
G01 X-53.6617 Y35.0696 
G01 X-53.7274 Y35.0696 
G01 X-53.7862 Y35.0940 
G01 X-53.8312 Y35.1390 
G01 X-53.8556 Y35.1978 
G01 X-53.8556 Y37.1922 
G01 X-53.8312 Y37.2510 
G01 X-53.7862 Y37.2960 
G01 X-53.7274 Y37.3204 
G01 X-53.7206 Y37.3204 
G01 X-53.5553 Y37.3888 
G01 X-53.4288 Y37.5153 
G01 X-53.3604 Y37.6806 
G01 X-53.3604 Y39.1594 
G01 X-53.4101 Y39.2794 
G01 X-53.4242 Y39.3135 
G01 X-53.4344 Y39.3382 
G01 X-53.4344 Y39.4018 
G01 X-53.4101 Y39.4606 
G01 X-53.3604 Y39.5806 
G01 X-53.3604 Y41.0594 
G01 X-53.4288 Y41.2247 
G01 X-53.5553 Y41.3512 
G01 X-53.6912 Y41.4075 
G01 X-53.7470 Y41.4306 
G01 X-53.7500 Y41.4318 
G01 X-53.7950 Y41.4768 
G01 X-53.8194 Y41.5356 
G01 X-53.8194 Y41.5993 
G01 X-53.7950 Y41.6581 
G01 X-53.7500 Y41.7031 
G01 X-50.5119 Y44.9412 
G01 X-50.4531 Y44.9656 
G01 X-30.3299 Y44.9656 
G01 X-30.0526 Y45.0804 
G01 X-29.8404 Y45.2927 
G01 X-29.7954 Y45.3377 
G01 X-28.5704 Y46.5627 
G01 X-28.4556 Y46.8399 
G01 X-28.4556 Y47.2480 
G01 X-28.4312 Y47.3068 
G01 X-28.3862 Y47.3518 
G01 X-28.0144 Y47.7236 
G01 X-27.7952 Y48.2529 
G01 X-27.7952 Y48.3172 
G01 X-27.7708 Y48.3760 
G01 X-27.7258 Y48.4210 
G01 X-27.6670 Y48.4454 
G01 X-14.7167 Y48.4454 
G01 X-14.2262 Y48.2422 
G01 X-13.7138 Y48.2422 
G01 X-13.2405 Y48.4382 
G01 X-12.8782 Y48.8005 
G01 X-12.6822 Y49.2738 
G01 X-12.6822 Y49.7862 
G01 X-12.8782 Y50.2595 
G01 X-13.2405 Y50.6218 
G01 X-13.7138 Y50.8178 
G01 X-14.2262 Y50.8178 
G01 X-14.7167 Y50.6146 
G01 X-27.6670 Y50.6146 
G01 X-27.7258 Y50.6390 
G01 X-27.7708 Y50.6840 
G01 X-27.7952 Y50.7428 
G01 X-27.7952 Y50.8071 
G01 X-28.0144 Y51.3364 
G01 X-28.4196 Y51.7416 
G01 X-28.9489 Y51.9608 
G01 X-29.5219 Y51.9608 
G01 X-30.0512 Y51.7416 
G01 X-30.4564 Y51.3364 
G01 X-30.6756 Y50.8071 
G01 X-30.6756 Y48.2529 
G01 X-30.4564 Y47.7236 
G01 X-30.0905 Y47.3577 
G01 X-30.0661 Y47.2989 
G01 X-30.0661 Y47.2352 
G01 X-30.0905 Y47.1764 
G01 X-30.1355 Y47.1314 
G01 X-30.7681 Y46.4988 
G01 X-30.8269 Y46.4744 
G01 X-50.9501 Y46.4744 
G01 X-51.2273 Y46.3596 
G01 X-55.0373 Y42.5496 
G01 X-55.2496 Y42.3373 
G01 X-55.3644 Y42.0601 
G01 X-55.3644 Y41.5478 
G01 X-55.3888 Y41.4890 
G01 X-55.4338 Y41.4440 
G01 X-55.4926 Y41.4196 
G01 X-55.4994 Y41.4196 
G01 X-55.5603 Y41.3944 
G01 X-70.0490 Y41.3944 
G01 X-70.0528 Y41.3960 
G01 X-70.2306 Y41.4696 
G01 X-72.0094 Y41.4696 
G01 X-72.1910 Y41.3944 
G01 X-72.9905 Y41.3944 
G01 X-73.0493 Y41.4188 
G01 X-73.0943 Y41.4638 
G01 X-73.3623 Y41.7318 
G01 X-73.8356 Y41.9278 
G01 X-73.9930 Y41.9278 
G01 X-74.0120 Y41.9248 
G01 X-74.0246 Y41.9278 
G01 X-74.0375 Y41.9278 
G01 X-74.0552 Y41.9352 
G01 X-74.0739 Y41.9397 
G01 X-74.0844 Y41.9472 
G01 X-74.0963 Y41.9522 
G01 X-74.1099 Y41.9658 
G01 X-74.1254 Y41.9771 
G01 X-74.1322 Y41.9881 
G01 X-74.1413 Y41.9972 
G01 X-74.1486 Y42.0149 
G01 X-74.1587 Y42.0314 
G01 X-74.1607 Y42.0441 
G01 X-74.1656 Y42.0560 
G01 X-74.1656 Y42.0752 
G01 X-74.1686 Y42.0942 
G01 X-74.1656 Y42.1068 
G01 X-74.1656 Y42.1196 
G01 X-74.1583 Y42.1374 
G01 X-74.1538 Y42.1561 
G01 X-74.1462 Y42.1665 
G01 X-74.1413 Y42.1784 
G01 X-74.1379 Y42.1818 
G01 X-75.7221 Y42.1818 
G01 X-75.7187 Y42.1784 
G01 X-75.7138 Y42.1665 
G01 X-75.7062 Y42.1561 
G01 X-75.7017 Y42.1374 
G01 X-75.6944 Y42.1196 
G01 X-75.6944 Y42.1068 
G01 X-75.6914 Y42.0942 
G01 X-75.6944 Y42.0752 
G01 X-75.6944 Y42.0560 
G01 X-75.6993 Y42.0441 
G01 X-75.7013 Y42.0314 
G01 X-75.7114 Y42.0150 
G01 X-75.7187 Y41.9972 
G01 X-75.7278 Y41.9881 
G01 X-75.7346 Y41.9771 
G01 X-75.7501 Y41.9658 
G01 X-75.7637 Y41.9522 
G01 X-75.7756 Y41.9472 
G01 X-75.7861 Y41.9397 
G01 X-75.8048 Y41.9352 
G01 X-75.8225 Y41.9278 
G01 X-75.8354 Y41.9278 
G01 X-75.8480 Y41.9248 
G01 X-75.8670 Y41.9278 
G01 X-76.0244 Y41.9278 
G01 X-76.4977 Y41.7318 
G01 X-76.8600 Y41.3695 
G01 X-77.0560 Y40.8962 
G01 X-77.0560 Y40.3838 
G01 X-76.8600 Y39.9105 
G01 X-76.4977 Y39.5482 
G01 X-76.0244 Y39.3522 
G01 X-73.8356 Y39.3522 
G01 X-73.3623 Y39.5482 
G01 X-73.0493 Y39.8612 
G01 X-72.9905 Y39.8856 
G01 X-72.4978 Y39.8856 
G01 X-72.4390 Y39.8612 
G01 X-72.3940 Y39.8162 
G01 X-72.3696 Y39.7574 
G01 X-72.3696 Y39.6306 
G01 X-72.3012 Y39.4653 
G01 X-72.1747 Y39.3388 
G01 X-72.1087 Y39.3115 
G01 X-72.0498 Y39.2871 
G01 X-72.0055 Y39.2428 
G01 X-71.9909 Y39.2084 
G01 X-71.9805 Y39.1833 
G01 X-71.9805 Y39.1681 
G01 X-71.9518 Y39.1800 
G01 X-70.2882 Y39.1800 
G01 X-70.2595 Y39.1681 
G01 X-70.2595 Y39.1833 
G01 X-70.2497 Y39.2070 
G01 X-70.2352 Y39.2421 
G01 X-70.1902 Y39.2871 
G01 X-70.1313 Y39.3115 
G01 X-70.0653 Y39.3388 
G01 X-69.9388 Y39.4653 
G01 X-69.8704 Y39.6306 
G01 X-69.8704 Y39.7574 
G01 X-69.8460 Y39.8162 
G01 X-69.8010 Y39.8612 
G01 X-69.7422 Y39.8856 
G01 X-55.9878 Y39.8856 
G01 X-55.9290 Y39.8612 
G01 X-55.8840 Y39.8162 
G01 X-55.8596 Y39.7574 
G01 X-55.8596 Y39.5806 
G01 X-55.8099 Y39.4606 
G01 X-55.7863 Y39.4036 
G01 X-55.7856 Y39.3382 
G01 X-55.7953 Y39.3148 
G01 X-55.8099 Y39.2794 
G01 X-55.8596 Y39.1594 
G01 X-55.8596 Y37.6806 
G01 X-55.7912 Y37.5153 
G01 X-55.6647 Y37.3888 
G01 X-55.4994 Y37.3204 
G01 X-55.4926 Y37.3204 
G01 X-55.4338 Y37.2960 
G01 X-55.3888 Y37.2510 
G01 X-55.3644 Y37.1922 
G01 X-55.3644 Y35.1978 
G01 X-55.3888 Y35.1390 
G01 X-55.4338 Y35.0940 
G01 X-55.4926 Y35.0696 
G01 X-55.4994 Y35.0696 
G01 X-55.6647 Y35.0012 
G01 X-55.7912 Y34.8747 
G01 X-55.8596 Y34.7094 
G01 X-55.8596 Y33.2306 
G01 X-55.7912 Y33.0653 
G01 X-55.6647 Y32.9388 
G01 X-55.6322 Y32.9254 
G01 X-55.5764 Y32.9023 
G01 X-55.5734 Y32.9010 
G01 X-55.5284 Y32.8560 
G01 X-55.5201 Y32.8361 
G01 X-55.5006 Y32.8556 
G01 X-55.4418 Y32.8800 
G01 X-53.7782 Y32.8800 
G01 X-53.7194 Y32.8556 
G01 X-53.6999 Y32.8361 
G01 X-53.6916 Y32.8560 
G01 X-53.6466 Y32.9010 
G01 X-53.5878 Y32.9254 
G01 X-53.5553 Y32.9388 
G01 X-53.4288 Y33.0653 
G01 X-53.3604 Y33.2306 
G01 X-53.3604 Y33.4074 
G01 X-53.3360 Y33.4662 
G01 X-53.2910 Y33.5112 
G01 X-53.2322 Y33.5356 
G01 X-53.1899 Y33.5356 
G01 X-52.9126 Y33.6504 
G01 X-52.4169 Y34.1462 
G01 X-52.3581 Y34.1706 
G01 X-51.8251 Y34.1706 
G01 X-51.7680 Y34.1469 
G01 X-51.7213 Y34.1012 
G01 X-51.6972 Y34.0431 
G01 X-51.6969 Y33.9788 
G01 X-51.7206 Y33.9216 
G01 X-51.7663 Y33.8749 
G01 X-51.8918 Y33.7495 
G01 X-52.0878 Y33.2762 
G01 X-52.0878 Y32.7638 
G01 X-51.8918 Y32.2905 
G01 X-51.6510 Y32.0497 
G01 X-51.6266 Y31.9909 
G01 X-51.6266 Y31.9273 
G01 X-51.6510 Y31.8685 
G01 X-51.6960 Y31.8235 
G01 X-51.7548 Y31.7991 
G01 X-51.8623 Y31.7546 
G01 X-53.7673 Y29.8496 
G01 X-53.9796 Y29.6373 
G01 X-54.0944 Y29.3601 
G01 X-54.0944 Y26.9176 
G01 X-54.1188 Y26.8588 
G01 X-54.1638 Y26.8138 
G01 X-54.2226 Y26.7894 
G01 X-55.8888 Y26.7894 
G01 X-55.9476 Y26.8138 
G01 X-55.9628 Y26.8290 
G01 X-55.9823 Y26.7820 
G01 X-56.0402 Y26.7241 
G01 X-56.1158 Y26.6928 
G01 X-57.8842 Y26.6928 
G01 X-57.9598 Y26.7241 
G01 X-57.9829 Y26.7473 
G01 X-57.9866 Y26.7410 
G01 X-57.9947 Y26.7213 
G01 X-58.0023 Y26.7136 
G01 X-58.0077 Y26.7043 
G01 X-58.0247 Y26.6913 
G01 X-58.0397 Y26.6762 
G01 X-58.0497 Y26.6721 
G01 X-58.0582 Y26.6656 
G01 X-58.0788 Y26.6601 
G01 X-58.1239 Y26.6414 
G01 X-58.2632 Y26.5021 
G01 X-58.3386 Y26.3200 
G01 X-58.3386 Y25.3000 
G01 X-58.2768 Y25.1506 
G01 X-58.2528 Y25.0928 
G01 X-58.2524 Y25.0282 
G01 X-58.2541 Y25.0240 
G01 X-58.3386 Y24.8200 
G01 X-58.3386 Y23.8000 
G01 X-58.2632 Y23.6179 
G01 X-58.1239 Y23.4786 
G01 X-57.9418 Y23.4032 
G01 X-56.0582 Y23.4032 
G01 X-55.8761 Y23.4786 
G01 X-55.7368 Y23.6179 
G01 X-55.6614 Y23.8000 
G01 X-55.6614 Y24.8200 
G01 X-55.7232 Y24.9694 
G01 X-55.7476 Y25.0282 
G01 X-55.7476 Y25.0918 
G01 X-55.7232 Y25.1506 
G01 X-55.7032 Y25.1990 
G01 X-55.6982 Y25.2112 
G01 X-55.6739 Y25.2355 
G01 X-55.6531 Y25.2562 
G01 X-55.5943 Y25.2806 
G01 X-54.2226 Y25.2806 
G01 X-54.1638 Y25.2562 
G01 X-54.1188 Y25.2112 
G01 X-54.0944 Y25.1524 
G01 X-54.0944 Y15.0713 
G01 X-54.1188 Y15.0125 
G01 X-54.1638 Y14.9675 
G01 X-54.4318 Y14.6995 
G01 X-54.6278 Y14.2262 
G01 X-54.6278 Y13.7138 
G01 X-54.4318 Y13.2405 
G01 X-54.0695 Y12.8782 
G01 X-53.5962 Y12.6822 
G01 X-53.0838 Y12.6822 
G01 X-52.6105 Y12.8782 
G01 X-52.2482 Y13.2405 
G01 X-52.0522 Y13.7138 
G01 X-52.0522 Y14.2262 
G01 X-52.2482 Y14.6995 
G01 X-52.5612 Y15.0125 
G01 X-52.5856 Y15.0713 
G01 X-52.5856 Y28.8631 
G01 X-52.5612 Y28.9219 
G01 X-52.3384 Y29.1446 
G01 X-52.2796 Y29.1690 
G01 X-52.2160 Y29.1690 
G01 X-52.1572 Y29.1446 
G01 X-52.1122 Y29.0996 
G01 X-52.0878 Y29.0408 
G01 X-52.0878 Y28.9703 
G01 X-52.0893 Y28.9667 
G01 X-52.1894 Y28.7251 
G01 X-52.1894 Y25.5054 
G01 X-52.1863 Y25.4897 
G01 X-52.1894 Y25.4739 
G01 X-52.1894 Y25.4577 
G01 X-52.1955 Y25.4430 
G01 X-52.2042 Y25.3992 
G01 X-52.1956 Y25.3562 
G01 X-52.1894 Y25.3413 
G01 X-52.1894 Y25.3253 
G01 X-52.1863 Y25.3096 
G01 X-52.1894 Y25.2938 
G01 X-52.1894 Y25.2499 
G01 X-52.1723 Y25.2087 
G01 X-52.1634 Y25.1954 
G01 X-52.1603 Y25.1796 
G01 X-52.1541 Y25.1647 
G01 X-52.1541 Y25.1487 
G01 X-52.1453 Y25.1049 
G01 X-52.1209 Y25.0685 
G01 X-52.1095 Y25.0570 
G01 X-52.1034 Y25.0423 
G01 X-52.0945 Y25.0290 
G01 X-52.0913 Y25.0132 
G01 X-52.0746 Y24.9727 
G01 X-52.0430 Y24.9411 
G01 X-52.0297 Y24.9322 
G01 X-52.0207 Y24.9188 
G01 X-52.0093 Y24.9074 
G01 X-52.0032 Y24.8926 
G01 X-51.9783 Y24.8555 
G01 X-51.9419 Y24.8312 
G01 X-51.9269 Y24.8250 
G01 X-51.9156 Y24.8137 
G01 X-51.9023 Y24.8049 
G01 X-51.8933 Y24.7914 
G01 X-51.8623 Y24.7604 
G01 X-51.8211 Y24.7433 
G01 X-51.8054 Y24.7402 
G01 X-51.7920 Y24.7313 
G01 X-51.7771 Y24.7251 
G01 X-51.7658 Y24.7138 
G01 X-50.0368 Y23.5612 
G01 X-50.0219 Y23.5550 
G01 X-50.0106 Y23.5437 
G01 X-49.9973 Y23.5348 
G01 X-49.9883 Y23.5214 
G01 X-49.9573 Y23.4904 
G01 X-49.9161 Y23.4733 
G01 X-49.9004 Y23.4703 
G01 X-49.8870 Y23.4613 
G01 X-49.8721 Y23.4551 
G01 X-49.8608 Y23.4438 
G01 X-49.8236 Y23.4190 
G01 X-49.7806 Y23.4105 
G01 X-49.7644 Y23.4105 
G01 X-49.7497 Y23.4044 
G01 X-49.7340 Y23.4013 
G01 X-49.7206 Y23.3924 
G01 X-49.6801 Y23.3756 
G01 X-49.6354 Y23.3756 
G01 X-49.6197 Y23.3787 
G01 X-49.6039 Y23.3756 
G01 X-49.5877 Y23.3756 
G01 X-49.5730 Y23.3695 
G01 X-49.5292 Y23.3608 
G01 X-49.4862 Y23.3694 
G01 X-49.4713 Y23.3756 
G01 X-49.4553 Y23.3756 
G01 X-49.4396 Y23.3787 
G01 X-49.4238 Y23.3756 
G01 X-48.5002 Y23.3756 
G01 X-48.4414 Y23.3512 
G01 X-48.3964 Y23.3062 
G01 X-48.2792 Y23.1890 
G01 X-47.8124 Y22.9956 
G01 X-47.7896 Y22.9728 
G01 X-47.7674 Y22.9506 
G01 X-47.7433 Y22.8925 
G01 X-47.7431 Y22.8282 
G01 X-47.7500 Y22.8114 
G01 X-47.7674 Y22.7694 
G01 X-47.7903 Y22.7465 
G01 X-47.8124 Y22.7244 
G01 X-48.2792 Y22.5310 
G01 X-48.3738 Y22.4364 
G01 X-48.4076 Y22.4224 
G01 X-48.4326 Y22.4120 
G01 X-48.4963 Y22.4120 
G01 X-48.5200 Y22.4218 
G01 X-48.5551 Y22.4364 
G01 X-48.6001 Y22.4814 
G01 X-48.8005 Y22.6818 
G01 X-49.2738 Y22.8778 
G01 X-49.7862 Y22.8778 
G01 X-50.2595 Y22.6818 
G01 X-50.6218 Y22.3195 
G01 X-50.8178 Y21.8462 
G01 X-50.8178 Y21.3338 
G01 X-50.6218 Y20.8605 
G01 X-50.2595 Y20.4982 
G01 X-49.7862 Y20.3022 
G01 X-49.2738 Y20.3022 
G01 X-48.8005 Y20.4982 
G01 X-48.6001 Y20.6986 
G01 X-48.5558 Y20.7429 
G01 X-48.5213 Y20.7576 
G01 X-48.4963 Y20.7680 
G01 X-48.4326 Y20.7680 
G01 X-48.4090 Y20.7582 
G01 X-48.3738 Y20.7436 
G01 X-48.2792 Y20.6490 
G01 X-47.8712 Y20.4800 
G01 X-46.1088 Y20.4800 
G01 X-45.7008 Y20.6490 
G01 X-45.4550 Y20.8947 
G01 X-45.3962 Y20.9191 
G01 X-45.3326 Y20.9191 
G01 X-45.2738 Y20.8947 
G01 X-45.2288 Y20.8497 
G01 X-45.2044 Y20.7909 
G01 X-45.2044 Y11.8513 
G01 X-45.2044 Y11.8196 
G01 X-45.2044 Y11.7896 
G01 X-45.2052 Y11.7859 
G01 X-45.2173 Y11.7585 
G01 X-45.2288 Y11.7308 
G01 X-45.2310 Y11.7277 
G01 X-45.2526 Y11.7070 
G01 X-45.2738 Y11.6858 
G01 X-45.3544 Y11.6099 
G01 X-45.3755 Y11.5888 
G01 X-45.3788 Y11.5867 
G01 X-45.4067 Y11.5759 
G01 X-45.4343 Y11.5644 
G01 X-45.4381 Y11.5637 
G01 X-45.4680 Y11.5644 
G01 X-55.5513 Y11.5644 
G01 X-55.6101 Y11.5888 
G01 X-55.6545 Y11.6331 
G01 X-55.6691 Y11.6675 
G01 X-55.6795 Y11.6926 
G01 X-55.6795 Y11.7562 
G01 X-55.6614 Y11.8000 
G01 X-55.6614 Y12.8200 
G01 X-55.7476 Y13.0282 
G01 X-55.7476 Y13.0918 
G01 X-55.7232 Y13.1506 
G01 X-55.6614 Y13.3000 
G01 X-55.6614 Y14.3200 
G01 X-55.7368 Y14.5021 
G01 X-55.8761 Y14.6414 
G01 X-56.0582 Y14.7168 
G01 X-57.9418 Y14.7168 
G01 X-58.1239 Y14.6414 
G01 X-58.2632 Y14.5021 
G01 X-58.3386 Y14.3200 
G01 X-58.3386 Y13.3000 
G01 X-58.2767 Y13.1506 
G01 X-58.2528 Y13.0928 
G01 X-58.2524 Y13.0282 
G01 X-58.2541 Y13.0240 
G01 X-58.3386 Y12.8200 
G01 X-58.3386 Y11.8000 
G01 X-58.2524 Y11.5918 
G01 X-58.2524 Y11.5282 
G01 X-58.2767 Y11.4694 
G01 X-58.3386 Y11.3200 
G01 X-58.3386 Y10.3000 
G01 X-58.2524 Y10.0918 
G01 X-58.2524 Y10.0282 
G01 X-58.2767 Y9.9694  
G01 X-58.3386 Y9.8200  
G01 X-58.3386 Y8.8328  
G01 X-58.3630 Y8.7740  
G01 X-58.4080 Y8.7290  
G01 X-58.4668 Y8.7046  
G01 X-68.5332 Y8.7046  
G01 X-68.5920 Y8.7290  
G01 X-68.6370 Y8.7740  
G01 X-68.6614 Y8.8328  
G01 X-68.6614 Y9.8200  
G01 X-68.7476 Y10.0282 
G01 X-68.7476 Y10.0918 
G01 X-68.7232 Y10.1506 
G01 X-68.6614 Y10.3000 
G01 X-68.6614 Y11.3200 
G01 X-68.7476 Y11.5282 
G01 X-68.7476 Y11.5918 
G01 X-68.7232 Y11.6506 
G01 X-68.6614 Y11.8000 
G01 X-68.6614 Y12.8200 
G01 X-68.7232 Y12.9694 
G01 X-68.7472 Y13.0272 
G01 X-68.7476 Y13.0918 
G01 X-68.7459 Y13.0960 
G01 X-68.6614 Y13.3000 
G01 X-68.6614 Y14.3200 
G01 X-68.7232 Y14.4694 
G01 X-68.7282 Y14.4813 
G01 X-68.7476 Y14.5282 
G01 X-68.7476 Y14.5918 
G01 X-68.7287 Y14.6374 
G01 X-68.7233 Y14.6506 
G01 X-68.6614 Y14.8000 
G01 X-68.6614 Y15.8200 
G01 X-68.7232 Y15.9694 
G01 X-68.7282 Y15.9813 
G01 X-68.7476 Y16.0282 
G01 X-68.7476 Y16.0918 
G01 X-68.7287 Y16.1374 
G01 X-68.7233 Y16.1506 
G01 X-68.6614 Y16.3000 
G01 X-68.6614 Y17.3200 
G01 X-68.7232 Y17.4694 
G01 X-68.7282 Y17.4812 
G01 X-68.7476 Y17.5282 
G01 X-68.7476 Y17.5918 
G01 X-68.7287 Y17.6374 
G01 X-68.7233 Y17.6506 
G01 X-68.6614 Y17.8000 
G01 X-68.6614 Y18.8200 
G01 X-68.7232 Y18.9694 
G01 X-68.7282 Y18.9812 
G01 X-68.7476 Y19.0282 
G01 X-68.7476 Y19.0918 
G01 X-68.7287 Y19.1374 
G01 X-68.7233 Y19.1506 
G01 X-68.6614 Y19.3000 
G01 X-68.6614 Y20.3200 
G01 X-68.7232 Y20.4694 
G01 X-68.7282 Y20.4812 
G01 X-68.7476 Y20.5282 
G01 X-68.7476 Y20.5918 
G01 X-68.7287 Y20.6374 
G01 X-68.7233 Y20.6506 
G01 X-68.6614 Y20.8000 
G01 X-68.6614 Y21.8200 
G01 X-68.7476 Y22.0282 
G01 X-68.7476 Y22.0918 
G01 X-68.7232 Y22.1506 
G01 X-68.6614 Y22.3000 
G01 X-68.6614 Y23.2474 
G01 X-68.6370 Y23.3062 
G01 X-68.5920 Y23.3512 
G01 X-68.5332 Y23.3756 
G01 X-65.8899 Y23.3756 
G01 X-65.6127 Y23.4904 
G01 X-65.4004 Y23.7027 
G01 X-65.2856 Y23.9799 
G01 X-65.2856 Y30.3722 
G01 X-65.2612 Y30.4310 
G01 X-65.2162 Y30.4760 
G01 X-65.1574 Y30.5004 
G01 X-64.9806 Y30.5004 
G01 X-64.8606 Y30.5501 
G01 X-64.8265 Y30.5642 
G01 X-64.8018 Y30.5744 
G01 X-64.7382 Y30.5744 
G01 X-64.6794 Y30.5501 
G01 X-64.5594 Y30.5004 
G01 X-63.0806 Y30.5004 
G01 X-62.9153 Y30.5688 
G01 X-62.8081 Y30.6760 
G01 X-62.7493 Y30.7004 
G01 X-61.3206 Y30.7004 
G01 X-61.1553 Y30.7688 
G01 X-61.0288 Y30.8953 
G01 X-60.9604 Y31.0606 
G01 X-60.9604 Y32.4394 
G01 X-61.0288 Y32.6047 
G01 X-61.1553 Y32.7312 
G01 X-61.3206 Y32.7996 
G01 X-62.7493 Y32.7996 
G01 X-62.8081 Y32.8240 
G01 X-62.9153 Y32.9312 
G01 X-63.0806 Y32.9996 
G01 X-64.5594 Y32.9996 
G01 X-64.6794 Y32.9499 
G01 X-64.7364 Y32.9263 
G01 X-64.8018 Y32.9256 
G01 X-64.8252 Y32.9353 
G01 X-64.8606 Y32.9499 
G01 X-64.9806 Y32.9996 
G01 X-66.4594 Y32.9996 
G01 X-66.6247 Y32.9312 
G01 X-66.7512 Y32.8047 
G01 X-66.8196 Y32.6394 
G01 X-66.8196 Y30.8606 
G01 X-66.7944 Y30.7997 
G01 X-66.7944 Y30.6768 
G01 X-66.8188 Y30.6180 
G01 X-66.8638 Y30.5730 
G01 X-66.9226 Y30.5486 
G01 X-67.7600 Y30.5486 
G01 X-67.9421 Y30.4732 
G01 X-68.0814 Y30.3339 
G01 X-68.1001 Y30.2888 
G01 X-68.1056 Y30.2682 
G01 X-68.1121 Y30.2597 
G01 X-68.1162 Y30.2497 
G01 X-68.1313 Y30.2347 
G01 X-68.1443 Y30.2177 
G01 X-68.1536 Y30.2124 
G01 X-68.1613 Y30.2047 
G01 X-68.1810 Y30.1966 
G01 X-68.1873 Y30.1929 
G01 X-68.1641 Y30.1698 
G01 X-68.1328 Y30.0942 
G01 X-68.1328 Y28.3258 
G01 X-68.1641 Y28.2502 
G01 X-68.1873 Y28.2271 
G01 X-68.1810 Y28.2234 
G01 X-68.1613 Y28.2153 
G01 X-68.1536 Y28.2076 
G01 X-68.1443 Y28.2023 
G01 X-68.1313 Y28.1853 
G01 X-68.1162 Y28.1702 
G01 X-68.1121 Y28.1603 
G01 X-68.1056 Y28.1518 
G01 X-68.1001 Y28.1312 
G01 X-68.0814 Y28.0861 
G01 X-67.9421 Y27.9468 
G01 X-67.7600 Y27.8714 
G01 X-66.9226 Y27.8714 
G01 X-66.8638 Y27.8470 
G01 X-66.8188 Y27.8020 
G01 X-66.7944 Y27.7432 
G01 X-66.7944 Y25.0126 
G01 X-66.8188 Y24.9538 
G01 X-66.8638 Y24.9088 
G01 X-66.9226 Y24.8844 
G01 X-68.6130 Y24.8844 
G01 X-68.6610 Y24.9043 
G01 X-68.6718 Y24.9088 
G01 X-68.7161 Y24.9531 
G01 X-68.7320 Y24.9904 
G01 X-68.7412 Y25.0126 
G01 X-68.7476 Y25.0282 
G01 X-68.7476 Y25.0918 
G01 X-68.7313 Y25.1311 
G01 X-68.6614 Y25.3000 
G01 X-68.6614 Y26.3200 
G01 X-68.7368 Y26.5021 
