(.../pcb-gcode-3.6.0.4/pcb-gcode.ulp)
(Copyright 2005 - 2012 by John Johnson)
(See readme.txt for licensing terms.)
(This file generated from the board:)
(.../CMMC/B_Bot stm32f0/B Bot Cube.brd)
(Current profile is .../pcb-gcode-3.6.0.4/profiles/mach.pp  )
(This file generated 12/30/2014 11:19:28 PM)
(Settings from pcb-machine.h)
(  Tool Size)
(0.3000  )
(Z Axis Settings)
(  High     Up        Down     Drill)
(10.0000 	2.0000  	-0.2200 	-2.0000 )
(spindle on time = 0.0000)
(milling depth = -1.6000)
(text depth = -0.2000)
(tool change at 0.0000  0.0000  10.0000 )
(feed rate xy = F300   )
(feed rate z  = F200   )
(Settings from pcb-defaults.h)
(isolate min = 0.0100)
(isolate max = 20.0000)
(isolate step = 0.2500)
(Generated bottom outlines, bottom drill, )
(Unit of measure: mm)
( Tool|       Size       |  Min Sub |  Max Sub |   Count )
( T01 | 3.302mm 0.1300in | 0.0000in | 0.0000in |       0 )
( T02 | 0.600mm 0.0236in | 0.0000in | 0.0000in |       0 )
( T03 | 0.800mm 0.0315in | 0.0000in | 0.0000in |       0 )
( T04 | 0.813mm 0.0320in | 0.0000in | 0.0000in |       0 )
( T05 | 1.016mm 0.0400in | 0.0000in | 0.0000in |       0 )
( T06 | 1.118mm 0.0440in | 0.0000in | 0.0000in |       0 )
( T07 | 1.321mm 0.0520in | 0.0000in | 0.0000in |       0 )
(Metric Mode)
G21
(Absolute Coordinates)
G90
M05
G00 Z10.0000 
G00 X0.0000  Y0.0000  
M06 T01  ; 3.3020  
G01 Z0.0000  F200   
M06 T01  ; 3.3020  
G00 Z2.0000  
M03
G04 P0.000000
G00 X-89.9160 Y43.1800 
G01 Z-2.0000 F200   
G00 Z2.0000  
M05
G00 Z10.0000 
G00 X0.0000  Y0.0000  
M06 T02  ; 0.6000  
G01 Z0.0000  F200   
M06 T02  ; 0.6000  
G00 Z2.0000  
M03
G04 P0.000000
G00 X-5.0000 Y5.0000  
G01 Z-2.0000 F200   
G00 Z2.0000  
G00 X-5.0000 Y50.0000 
G01 Z-2.0000 F200   
G00 Z2.0000  
G00 X-50.0000 Y50.0000 
G01 Z-2.0000 F200   
G00 Z2.0000  
G00 X-80.0000 Y5.0000  
G01 Z-2.0000 F200   
G00 Z2.0000  
G00 X-13.9700 Y49.5300 
G01 Z-2.0000 F200   
G00 Z2.0000  
G00 X-13.9700 Y5.0800  
G01 Z-2.0000 F200   
G00 Z2.0000  
G00 X-13.9700 Y26.6700 
G01 Z-2.0000 F200   
G00 Z2.0000  
G00 X-24.1300 Y34.2900 
G01 Z-2.0000 F200   
G00 Z2.0000  
G00 X-24.1300 Y22.8600 
G01 Z-2.0000 F200   
G00 Z2.0000  
G00 X-26.0350 Y36.8300 
G01 Z-2.0000 F200   
G00 Z2.0000  
G00 X-26.0350 Y20.3200 
G01 Z-2.0000 F200   
G00 Z2.0000  
M05
G00 Z10.0000 
G00 X0.0000  Y0.0000  
M06 T03  ; 0.8000  
G01 Z0.0000  F200   
M06 T03  ; 0.8000  
G00 Z2.0000  
M03
G04 P0.000000
G00 X-41.2750 Y17.1450 
G01 Z-2.0000 F200   
G00 Z2.0000  
G00 X-49.5300 Y21.5900 
G01 Z-2.0000 F200   
G00 Z2.0000  
G00 X-49.5300 Y26.6700 
G01 Z-2.0000 F200   
G00 Z2.0000  
G00 X-50.8000 Y33.0200 
G01 Z-2.0000 F200   
G00 Z2.0000  
G00 X-50.8000 Y29.2100 
G01 Z-2.0000 F200   
G00 Z2.0000  
G00 X-53.3400 Y13.9700 
G01 Z-2.0000 F200   
G00 Z2.0000  
G00 X-72.3900 Y21.5900 
G01 Z-2.0000 F200   
G00 Z2.0000  
G00 X-73.0250 Y29.2100 
G01 Z-2.0000 F200   
G00 Z2.0000  
G00 X-74.9300 Y20.3200 
G01 Z-2.0000 F200   
G00 Z2.0000  
G00 X-78.7400 Y13.9700 
G01 Z-2.0000 F200   
G00 Z2.0000  
G00 X-78.7400 Y18.4150 
G01 Z-2.0000 F200   
G00 Z2.0000  
G00 X-87.6300 Y20.3200 
G01 Z-2.0000 F200   
G00 Z2.0000  
G00 X-13.9700 Y49.5300 
G01 Z-2.0000 F200   
G00 Z2.0000  
G00 X-13.9700 Y5.0800  
G01 Z-2.0000 F200   
G00 Z2.0000  
G00 X-13.9700 Y26.6700 
G01 Z-2.0000 F200   
G00 Z2.0000  
G00 X-24.1300 Y34.2900 
G01 Z-2.0000 F200   
G00 Z2.0000  
G00 X-24.1300 Y17.1450 
G01 Z-2.0000 F200   
G00 Z2.0000  
G00 X-24.1300 Y22.8600 
G01 Z-2.0000 F200   
G00 Z2.0000  
G00 X-26.0350 Y36.8300 
G01 Z-2.0000 F200   
G00 Z2.0000  
G00 X-26.0350 Y20.3200 
G01 Z-2.0000 F200   
G00 Z2.0000  
G00 X-26.6700 Y6.3500  
G01 Z-2.0000 F200   
G00 Z2.0000  
G00 X-26.6700 Y1.9050  
G01 Z-2.0000 F200   
G00 Z2.0000  
G00 X-31.1150 Y13.9700 
G01 Z-2.0000 F200   
G00 Z2.0000  
M05
G00 Z10.0000 
G00 X0.0000  Y0.0000  
M06 T04  ; 0.8128  
G01 Z0.0000  F200   
M06 T04  ; 0.8128  
G00 Z2.0000  
M03
G04 P0.000000
G00 X-31.7500 Y31.7500 
G01 Z-2.0000 F200   
G00 Z2.0000  
G00 X-31.7500 Y34.2900 
G01 Z-2.0000 F200   
G00 Z2.0000  
G00 X-31.7500 Y36.8300 
G01 Z-2.0000 F200   
G00 Z2.0000  
G00 X-31.7500 Y3.8100  
G01 Z-2.0000 F200   
G00 Z2.0000  
G00 X-31.7500 Y39.3700 
G01 Z-2.0000 F200   
G00 Z2.0000  
G00 X-31.7500 Y41.9100 
G01 Z-2.0000 F200   
G00 Z2.0000  
G00 X-31.7500 Y19.0500 
G01 Z-2.0000 F200   
G00 Z2.0000  
G00 X-31.7500 Y21.5900 
G01 Z-2.0000 F200   
G00 Z2.0000  
G00 X-31.7500 Y24.1300 
G01 Z-2.0000 F200   
G00 Z2.0000  
G00 X-31.7500 Y26.6700 
G01 Z-2.0000 F200   
G00 Z2.0000  
G00 X-31.7500 Y29.2100 
G01 Z-2.0000 F200   
G00 Z2.0000  
G00 X-34.2900 Y3.8100  
G01 Z-2.0000 F200   
G00 Z2.0000  
G00 X-36.8300 Y3.8100  
G01 Z-2.0000 F200   
G00 Z2.0000  
G00 X-39.3700 Y3.8100  
G01 Z-2.0000 F200   
G00 Z2.0000  
G00 X-41.9100 Y3.8100  
G01 Z-2.0000 F200   
G00 Z2.0000  
G00 X-44.4500 Y3.8100  
G01 Z-2.0000 F200   
G00 Z2.0000  
G00 X-46.9900 Y31.7500 
G01 Z-2.0000 F200   
G00 Z2.0000  
G00 X-46.9900 Y34.2900 
G01 Z-2.0000 F200   
G00 Z2.0000  
G00 X-46.9900 Y36.8300 
G01 Z-2.0000 F200   
G00 Z2.0000  
G00 X-46.9900 Y3.8100  
G01 Z-2.0000 F200   
G00 Z2.0000  
G00 X-46.9900 Y39.3700 
G01 Z-2.0000 F200   
G00 Z2.0000  
G00 X-46.9900 Y41.9100 
G01 Z-2.0000 F200   
G00 Z2.0000  
G00 X-46.9900 Y19.0500 
G01 Z-2.0000 F200   
G00 Z2.0000  
G00 X-46.9900 Y21.5900 
G01 Z-2.0000 F200   
G00 Z2.0000  
G00 X-46.9900 Y24.1300 
G01 Z-2.0000 F200   
G00 Z2.0000  
G00 X-46.9900 Y26.6700 
G01 Z-2.0000 F200   
G00 Z2.0000  
G00 X-46.9900 Y29.2100 
G01 Z-2.0000 F200   
G00 Z2.0000  
G00 X-8.8900 Y31.7500 
G01 Z-2.0000 F200   
G00 Z2.0000  
G00 X-8.8900 Y34.2900 
G01 Z-2.0000 F200   
G00 Z2.0000  
G00 X-8.8900 Y36.8300 
G01 Z-2.0000 F200   
G00 Z2.0000  
G00 X-8.8900 Y39.3700 
G01 Z-2.0000 F200   
G00 Z2.0000  
G00 X-8.8900 Y41.9100 
G01 Z-2.0000 F200   
G00 Z2.0000  
G00 X-8.8900 Y44.4500 
G01 Z-2.0000 F200   
G00 Z2.0000  
G00 X-8.8900 Y5.0800  
G01 Z-2.0000 F200   
G00 Z2.0000  
G00 X-8.8900 Y7.6200  
G01 Z-2.0000 F200   
G00 Z2.0000  
G00 X-8.8900 Y10.1600 
G01 Z-2.0000 F200   
G00 Z2.0000  
G00 X-8.8900 Y12.7000 
G01 Z-2.0000 F200   
G00 Z2.0000  
G00 X-8.8900 Y15.2400 
G01 Z-2.0000 F200   
G00 Z2.0000  
G00 X-8.8900 Y17.7800 
G01 Z-2.0000 F200   
G00 Z2.0000  
G00 X-8.8900 Y20.3200 
G01 Z-2.0000 F200   
G00 Z2.0000  
G00 X-8.8900 Y22.8600 
G01 Z-2.0000 F200   
G00 Z2.0000  
G00 X-8.8900 Y26.6700 
G01 Z-2.0000 F200   
G00 Z2.0000  
G00 X-8.8900 Y29.2100 
G01 Z-2.0000 F200   
G00 Z2.0000  
G00 X-21.5900 Y31.7500 
G01 Z-2.0000 F200   
G00 Z2.0000  
G00 X-21.5900 Y34.2900 
G01 Z-2.0000 F200   
G00 Z2.0000  
G00 X-21.5900 Y36.8300 
G01 Z-2.0000 F200   
G00 Z2.0000  
G00 X-21.5900 Y39.3700 
G01 Z-2.0000 F200   
G00 Z2.0000  
G00 X-21.5900 Y41.9100 
G01 Z-2.0000 F200   
G00 Z2.0000  
G00 X-21.5900 Y44.4500 
G01 Z-2.0000 F200   
G00 Z2.0000  
G00 X-21.5900 Y5.0800  
G01 Z-2.0000 F200   
G00 Z2.0000  
G00 X-21.5900 Y7.6200  
G01 Z-2.0000 F200   
G00 Z2.0000  
G00 X-21.5900 Y10.1600 
G01 Z-2.0000 F200   
G00 Z2.0000  
G00 X-21.5900 Y12.7000 
G01 Z-2.0000 F200   
G00 Z2.0000  
G00 X-21.5900 Y15.2400 
G01 Z-2.0000 F200   
G00 Z2.0000  
G00 X-21.5900 Y17.7800 
G01 Z-2.0000 F200   
G00 Z2.0000  
G00 X-21.5900 Y20.3200 
G01 Z-2.0000 F200   
G00 Z2.0000  
G00 X-21.5900 Y22.8600 
G01 Z-2.0000 F200   
G00 Z2.0000  
G00 X-21.5900 Y26.6700 
G01 Z-2.0000 F200   
G00 Z2.0000  
G00 X-21.5900 Y29.2100 
G01 Z-2.0000 F200   
G00 Z2.0000  
G00 X-29.2100 Y3.8100  
G01 Z-2.0000 F200   
G00 Z2.0000  
M05
G00 Z10.0000 
G00 X0.0000  Y0.0000  
M06 T05  ; 1.0160  
G01 Z0.0000  F200   
M06 T05  ; 1.0160  
G00 Z2.0000  
M03
G04 P0.000000
G00 X-33.0200 Y10.1600 
G01 Z-2.0000 F200   
G00 Z2.0000  
G00 X-35.5600 Y10.1600 
G01 Z-2.0000 F200   
G00 Z2.0000  
G00 X-38.1000 Y10.1600 
G01 Z-2.0000 F200   
G00 Z2.0000  
G00 X-5.0800 Y31.7500 
G01 Z-2.0000 F200   
G00 Z2.0000  
G00 X-5.0800 Y34.2900 
G01 Z-2.0000 F200   
G00 Z2.0000  
G00 X-5.0800 Y36.8300 
G01 Z-2.0000 F200   
G00 Z2.0000  
G00 X-5.0800 Y39.3700 
G01 Z-2.0000 F200   
G00 Z2.0000  
G00 X-5.0800 Y10.1600 
G01 Z-2.0000 F200   
G00 Z2.0000  
G00 X-5.0800 Y12.7000 
G01 Z-2.0000 F200   
G00 Z2.0000  
G00 X-5.0800 Y15.2400 
G01 Z-2.0000 F200   
G00 Z2.0000  
G00 X-5.0800 Y17.7800 
G01 Z-2.0000 F200   
G00 Z2.0000  
G00 X-77.4700 Y22.8600 
G01 Z-2.0000 F200   
G00 Z2.0000  
G00 X-77.4700 Y25.4000 
G01 Z-2.0000 F200   
G00 Z2.0000  
G00 X-77.4700 Y27.9400 
G01 Z-2.0000 F200   
G00 Z2.0000  
G00 X-77.4700 Y30.4800 
G01 Z-2.0000 F200   
G00 Z2.0000  
G00 X-85.0900 Y22.8600 
G01 Z-2.0000 F200   
G00 Z2.0000  
G00 X-85.0900 Y25.4000 
G01 Z-2.0000 F200   
G00 Z2.0000  
G00 X-85.0900 Y27.9400 
G01 Z-2.0000 F200   
G00 Z2.0000  
G00 X-85.0900 Y30.4800 
G01 Z-2.0000 F200   
G00 Z2.0000  
G00 X-30.4800 Y10.1600 
G01 Z-2.0000 F200   
G00 Z2.0000  
M05
G00 Z10.0000 
G00 X0.0000  Y0.0000  
M06 T06  ; 1.1176  
G01 Z0.0000  F200   
M06 T06  ; 1.1176  
G00 Z2.0000  
M03
G04 P0.000000
G00 X-74.9300 Y40.6400 
G01 Z-2.0000 F200   
G00 Z2.0000  
G00 X-74.9300 Y43.1800 
G01 Z-2.0000 F200   
G00 Z2.0000  
G00 X-74.9300 Y45.7200 
G01 Z-2.0000 F200   
G00 Z2.0000  
M05
G00 Z10.0000 
G00 X0.0000  Y0.0000  
M06 T07  ; 1.3208  
G01 Z0.0000  F200   
M06 T07  ; 1.3208  
G00 Z2.0000  
M03
G04 P0.000000
G00 X-34.2646 Y49.5300 
G01 Z-2.0000 F200   
G00 Z2.0000  
G00 X-29.2354 Y49.5300 
G01 Z-2.0000 F200   
G00 Z2.0000  
T01 
G00 Z10.0000 
M05
M02
